!!!COM: L van Beethoven
!!!OTL: String Quartet
**kern	**dynam	**kern	**dynam	**kern	**dynam	**kern	**dynam	**mxhm
*part4	*part4	*part3	*part3	*part2	*part2	*part1	*part1	*part1
*staff4	*	*staff3	*	*staff2	*	*staff1	*	*
*I"Violoncello	*	*I"Viola	*	*I"Violin II	*	*I"Violin I	*	*
*I'Vc.	*	*I'Vla.	*	*I'Vln. II	*	*I'Vln. I	*	*
*clefF4	*	*clefC3	*	*clefG2	*	*clefG2	*	*
*k[b-e-a-]	*	*k[b-e-a-]	*	*k[b-e-a-]	*	*k[b-e-a-]	*	*
*c:	*	*c:	*	*c:	*	*c:	*	*
*M3/4	*	*M3/4	*	*M3/4	*	*M3/4	*	*
!	!	!	!	!	!	!LO:TX:a:B:t=Presto	!	!
*MM160	*	*MM160	*	*MM160	*	*MM160	*	*
!	!	!	!	!	!	!LO:TX:a:t=[quarter]=160	!	!
4r	.	4r	.	4r	.	8ccL	f	.c.i
!	!	!	!	!	!	!LO:TX:a:i:t=legieramente	!	!
.	.	.	.	.	.	8cc	.	.
8r	.	8r	.	8r	.	8ccJ	.	.
=1	=1	=1	=1	=1	=1	=1	=1	=1
4CC 4C	f f	8cL	.	8e-L	f	4.c	.	.
.	.	8d	.	8f	.	.	.	.
4r	.	8e-	.	8g	.	.	.	.
.	.	8f	.	8a-	.	8ee-L	.	.
4r	.	8e-	.	8g	.	8ee-	.	.
.	.	8dJ	.	8fJ	.	8ee-J	.	.
=2	=2	=2	=2	=2	=2	=2	=2	=2
4CC 4C	.	8cL	.	8e-L	.	4.e-	.	.
.	.	8d	.	8f	.	.	.	.
4r	.	8e-	.	8g	.	.	.	.
.	.	8f	.	8a-	.	8ggL	.	.
4r	.	8e-	.	8g	.	8gg	.	.
.	.	8dJ	.	8fJ	.	8ggJ	.	.
=3	=3	=3	=3	=3	=3	=3	=3	=3
4CC 4C	.	8cL	.	8e-L	.	4cc'	.	.
.	.	8d	.	8f	.	.	.	.
4CC 4C	.	8e-	.	8g	.	4ccc'	.	.
.	.	8f	.	8a-	.	.	.	.
4CC 4C	.	8f#X	.	8an	.	4cc'	.	#viio64/V
.	.	8f#J	.	8aJ	.	.	.	.
=4	=4	=4	=4	=4	=4	=4	=4	=4
4GG	.	8gL	.	8bnL	.	4bn	.	V
.	.	8an	.	8cc	.	.	.	.
4r	.	8bn	.	8dd	.	8r	.	.
.	.	8b	p	8dd	p	8ggL	p	.
4r	.	8b	.	8dd	.	8gg	.	.
.	.	8bJ	.	8ccJ	.	8ggJ	.	.
=5	=5	=5	=5	=5	=5	=5	=5	=5
2.r	.	8ccL	.	8ee-L	.	8aa-L	.	.
.	.	8b-	.	8dd	.	8gg	.	.
.	.	8an	.	8cc	.	8ff#X	.	.
.	.	8bn	.	8dd	.	8gg	.	.
.	.	8g	.	8bn	.	8dd	.	.
.	.	8gJ	.	8bJ	.	8ddJ	.	.
=6	=6	=6	=6	=6	=6	=6	=6	=6
2.r	.	8gL	.	8ccL	.	8ee-L	.	.
.	.	8d	.	8g	.	8bn	.	.
.	.	8e-	.	8g	.	8cc	.	.
.	.	8Bn	.	8d	.	8g	.	.
.	.	8c	.	8e-	.	8a-	.	.
.	.	8cJ	.	8e-J	.	8a-J	.	.
=7	=7	=7	=7	=7	=7	=7	=7	=7
8GGL	p	4Bn	.	4d	.	4g	.	.
8AA-J	.	.	.	.	.	.	.	.
8AA-L	.	4r	.	4r	.	4r	.	@none
8AA-J	.	.	.	.	.	.	.	.
8AA-L	.	4r	.	4r	.	4r	.	.
8AA-J	.	.	.	.	.	.	.	.
=	=	=	=	=	=	=	=	=
4GG	.	4.r	.	4.r	.	4r	.	.
8r	.	.	.	.	.	8r	.	.
=8:|!|:	=8:|!|:	=8:|!|:	=8:|!|:	=8:|!|:	=8:|!|:	=8:|!|:	=8:|!|:	=8:|!|:
8AA-L	f	8A-L	f f	8A-L	.	8A-L	f	VI
8AA-	.	8A-	.	8A-	.	8A-	.	.
8AA-J	.	8A-J	.	8A-J	.	8A-J	.	.
=9	=9	=9	=9	=9	=9	=9	=9	=9
4.GG	.	4.G	.	4.G	.	4.G	.	V
8AA-L	.	8A-L	.	8A-L	.	8A-L	.	VI
8AA-	.	8A-	.	8A-	.	8A-	.	.
8AA-J	.	8A-J	.	8A-J	.	8A-J	.	.
=10	=10	=10	=10	=10	=10	=10	=10	=10
4.GG	.	4.G	.	4.G	.	4.G	.	V
8AA-L	.	8A-L	.	8A-L	.	8A-L	.	VI
8AA-	.	8A-	.	8A-	.	8A-	.	.
8AA-J	.	8A-J	.	8A-J	.	8A-J	.	.
=11	=11	=11	=11	=11	=11	=11	=11	=11
4.GG	.	4.G	.	4.G	.	4.G	.	V
8AA-L	.	8A-L	.	8A-L	.	8A-L	.	VI
8AA-	.	8A-	.	8A-	.	8A-	.	.
8AA-J	.	8A-J	.	8A-J	.	8A-J	.	.
=12	=12	=12	=12	=12	=12	=12	=12	=12
4.GG	.	4.G	.	4.G	.	4.G	.	V
8DD-XL	.	8D-XL	.	8d-XL	.	8d-XL	.	iv.VI
8DD-	.	8D-	.	8d-	.	8d-	.	.
8DD-J	.	8D-J	.	8d-J	.	8d-J	.	.
=13	=13	=13	=13	=13	=13	=13	=13	=13
4.CC	.	4.C	.	4.c	.	4.c	.	V
8DD-XL	.	8D-XL	.	8d-XL	.	8d-XL	.	VI
8DD-	.	8D-	.	8d-	.	8d-	.	.
8DD-J	.	8D-J	.	8d-J	.	8d-J	.	.
=14	=14	=14	=14	=14	=14	=14	=14	=14
4.CC	.	4.C	.	4.c	.	4.c	.	V
8DD-XL	.	8D-XL	.	8d-XL	.	8d-XL	.	VI
8DD-	.	8D-	.	8d-	.	8d-	.	.
8DD-J	.	8D-J	.	8d-J	.	8d-J	.	.
=15	=15	=15	=15	=15	=15	=15	=15	=15
4.CC	.	4.C	.	4.c	.	4.c	.	V
8DD-XL	.	8D-XL	.	8d-XL	.	8d-XL	.	VI
8DD-	.	8D-	.	8d-	.	8d-	.	.
8DD-J	.	8D-J	.	8d-J	.	8d-J	.	.
=16	=16	=16	=16	=16	=16	=16	=16	=16
4.CC	.	4.C	.	4.c	.	4.c	.	.bII.V6
8CL	.	8E-L	.	8A-L	.	8a-L	.	.
8C	.	8E-	.	8A-	.	8a-	.	.
8CJ	.	8E-J	.	8A-J	.	8a-J	.	.
=17	=17	=17	=17	=17	=17	=17	=17	=17
4D-X	.	8FL 8A-	.	4A- 4f	.	8fL	.	I
.	.	8F 8A-	.	.	.	8d-X	.	.
4r	.	8F 8A-	.	4r	.	8f	.	.
.	.	8F 8A-	.	.	.	8a-	.	.
4r	.	8F 8A-	.	4r	.	8dd-X	.	.
.	.	8FJ 8A-	.	.	.	8ffJ	.	.
=18	=18	=18	=18	=18	=18	=18	=18	=18
4D-X	.	8FL 8A-	.	8fL	.	4aa-	.	.
.	.	8F 8A-	.	8d-X	.	.	.	.
4r	.	8F 8A-	.	8f	.	4r	.	.
.	.	8F 8A-	.	8a-	.	.	.	.
4r	.	8F 8A-	.	8dd-X	.	4ff	.	.
.	.	8FJ 8A-	.	8ffJ	.	.	.	.
=19	=19	=19	=19	=19	=19	=19	=19	=19
4GG-X	ff ff	8B-L	ff	[2.b-	.	[2.bb-	ff	IV
.	.	8G-X	.	.	.	.	.	.
4r	.	8B-	.	.	.	.	.	.
.	.	8e-	.	.	.	.	.	.
4r	.	8g-X	.	.	.	.	.	.
.	.	8b-J	.	.	.	.	.	.
=20	=20	=20	=20	=20	=20	=20	=20	=20
8GG-XL	.	4E-	.	4b-]	.	8bb-L]	.	.
8EE-	.	.	.	.	.	8aa-'	.	.
8GG-	.	4r	.	4B-	.	8gg-X'	.	.
8BB-	.	.	.	.	.	8ff'	.	.
8E-	.	8E-L	.	[4g-X	.	8ee-'	.	.
8G-XJ	.	8E-J	.	.	.	8dd-X'J	.	.
=21	=21	=21	=21	=21	=21	=21	=21	=21
4AA-	.	8E-L	.	8g-]	.	8cc'L	.	V7
.	.	8E-	.	8cL	.	8b-'	.	.
4r	.	8E-	.	8c	.	8a-'	.	.
.	.	8E-	.	8c	.	8g-X'	.	.
4r	.	8E-	.	8c	.	8f'	.	.
.	.	8E-J	.	8cJ	.	8e-'J	.	.
=22	=22	=22	=22	=22	=22	=22	=22	=22
4AA-	.	8G-XL	.	8e-L	.	8d-XL	.	.
.	.	8G-	.	8e-	.	8c	.	.
4r	.	8G-	.	8e-	.	8e-	.	.
.	.	8G-	.	8e-	.	8c	.	.
4r	.	8G-	.	8e-	.	8A-	.	.
.	.	8G-J	.	8e-J	.	8cJ	.	.
=23	=23	=23	=23	=23	=23	=23	=23	=23
4.D-X	.	4.A-	.	4.f	.	4d-X	.	I\\
.	.	.	.	.	.	4r	.	.
8d-XL	f	8fL	f	8a-L	f	.	.	.
8d-	.	8f	.	8a-	.	4r	.	.
8d-J	.	8fJ	.	8a-J	.	.	.	.
=24	=24	=24	=24	=24	=24	=24	=24	=24
4.d-X	.	4.f	.	4.a-	.	4r	.	I
.	.	.	.	.	.	8r	.	.
8D-XL	.	8FL	.	8A-L	.	8a-L	f	.
8D-	.	8F	.	8A-	.	8a-	.	.
8D-J	.	8FJ	.	8A-J	.	8a-J	.	.
=25	=25	=25	=25	=25	=25	=25	=25	=25
4D-X	.	8FL	.	4A-	.	8fL	.	.
.	.	8F 8A-	.	.	.	8d-X	.	.
4r	.	8F 8A-	.	4r	.	8f	.	.
.	.	8F 8A-	.	.	.	8a-	.	.
4r	.	8F 8A-	.	4r	.	8dd-X	.	.
.	.	8FJ 8A-	.	.	.	8ffJ	.	.
=26	=26	=26	=26	=26	=26	=26	=26	=26
4D-X	.	8FL 8A-	.	8fL	.	4aa-	.	.
.	.	8F 8A-	.	8d-X	.	.	.	.
4r	.	8F 8A-	.	8f	.	4r	.	.
.	.	8F 8A-	.	8a-	.	.	.	.
4r	.	8F 8A-	.	8dd-X	.	4ff	.	.
.	.	8FJ 8A-	.	8ffJ	.	.	.	.
=27	=27	=27	=27	=27	=27	=27	=27	=27
4BB-	ff ff	8FL 8Gn	.	[2.dd-X	ff	[2.ddd-X	ff	iv.ii%6
.	.	8G	.	.	.	.	.	.
4r	.	8B-	.	.	.	.	.	.
.	.	8d-X	.	.	.	.	.	.
4r	.	8gn	.	.	.	.	.	.
.	.	8b-J	.	.	.	.	.	.
=28	=28	=28	=28	=28	=28	=28	=28	=28
8BB-L	.	4B-	.	4dd-]	.	8ddd-L]	.	iio7
8GGn	.	.	.	.	.	8ccc'	.	.
8BB-	.	4r	.	4d-X	.	8bb-'	.	.
8D-X	.	.	.	.	.	8aa-'	.	.
8Gn	.	8GL	.	[4b-	.	8ggn'	.	.
8B-J	.	8GJ	.	.	.	8ff'J	.	.
=29	=29	=29	=29	=29	=29	=29	=29	=29
4C	.	8GL	.	8b-L]	.	8een'L	.	V7
.	.	8G	.	8B-	.	8dd-X'	.	.
4r	.	8G	.	8B-	.	8cc'	.	.
.	.	8G	.	8B-	.	8b-'	.	.
4r	.	8G	.	8B-	.	8a-'	.	.
.	.	8GJ	.	8B-J	.	8gn'J	.	.
=30	=30	=30	=30	=30	=30	=30	=30	=30
4C	.	8GL	.	8B-L	.	8fL	.	.
.	.	8G	.	8B-	.	8en	.	.
4r	.	8G	.	8B-	.	8g	.	.
.	.	8G	.	8B-	.	8e	.	.
4r	.	8G	.	8B-	.	8c	.	.
.	.	8GJ	.	8B-J	.	8eJ	.	.
=31	=31	=31	=31	=31	=31	=31	=31	=31
4FF	.	8FL	.	8A-L	.	4.f	.	i
.	.	8G	.	8B-	.	.	.	.
4r	.	8A-	.	8c	.	.	.	.
.	.	8B-	.	8d-X	.	8ffL	.	.
4r	.	8A-	.	8c	.	8ff	.	.
.	.	8GJ	.	8B-J	.	8ffJ	.	.
=32	=32	=32	=32	=32	=32	=32	=32	=32
4FF	.	8FL	.	8A-L	.	4.f	.	.
.	.	8G	.	8B-	.	.	.	.
4r	.	8A-	.	8c	.	.	.	.
.	.	8B-	.	8d-X	.	8aa-L	.	.
4r	.	8A-	.	8c	.	8aa-	.	.
.	.	8GJ	.	8B-J	.	8aa-J	.	.
=33	=33	=33	=33	=33	=33	=33	=33	=33
4FF	.	8FL	.	8A-L	.	4ff	.	i\\
.	.	8G	.	8B-	.	.	.	.
4FF	.	8F	.	8A-	.	4fff	.	.
.	.	8G	.	8B-	.	.	.	.
4FF	.	8A-	.	8c	.	4ff	.	.
.	.	8FJ	.	8A-J	.	.	.	.
=34	=34	=34	=34	=34	=34	=34	=34	=34
2.r	.	4r	.	4ddn	p	4r	.	i.#viio
.	.	4r	.	4dn	.	4fff	p	.
.	.	4bn	p	4r	.	4ff	.	.
=35	=35	=35	=35	=35	=35	=35	=35	=35
4r	.	4Bn	.	2.r	.	4r	.	.
4dn	p	4r	.	.	.	4fff	.	.
4Dn	.	4r	.	.	.	4ff	.	.
=36	=36	=36	=36	=36	=36	=36	=36	=36
4Bn	f	4r	.	4r	.	4r	.	V7
4GG	.	4G	.	4f	.	4ddd	.	.
8AAnL	.	4G	.	4f	.	4dd	.	.
8BBnJ	.	.	.	.	.	.	.	.
=37	=37	=37	=37	=37	=37	=37	=37	=37
4CC 4C	f	8CL	.	8e-L	f	4.c	f	i
.	.	8D	.	8f	.	.	.	.
4r	.	8E-	.	8g	.	.	.	.
.	.	8F	.	8a-	.	8ee-L	.	.
4r	.	8E-	.	8g	.	8ee-	.	.
.	.	8DJ	.	8fJ	.	8ee-J	.	.
=38	=38	=38	=38	=38	=38	=38	=38	=38
4CC 4C	.	8CL	.	8e-L	.	4.c	.	.
.	.	8D	.	8f	.	.	.	.
4r	.	8E-	.	8g	.	.	.	.
.	.	8F	.	8a-	.	8ggL	.	.
4r	.	8E-	.	8g	.	8gg	.	.
.	.	8DJ	.	8fJ	.	8ggJ	.	.
=39	=39	=39	=39	=39	=39	=39	=39	=39
4CC 4C	.	8CL	.	8e-L	.	4cc	.	.
.	.	8D	.	8f	.	.	.	.
4CC 4C	.	8C	.	8e-	.	4eee-	.	.
.	.	8D	.	8f	.	.	.	.
4CC 4C	.	8E-	.	8g	.	4cc	.	.
.	.	8CJ	.	8e-J	.	.	.	.
=40	=40	=40	=40	=40	=40	=40	=40	=40
2.r	.	4r	.	4an	p	4r	.	i.#viio/v
.	.	4r	.	4An	.	4ccc	p	.
.	.	4f#X	p	4r	.	4cc	.	.
=41	=41	=41	=41	=41	=41	=41	=41	=41
4r	.	4F#X	.	2.r	.	4r	.	.
4An	p	4r	.	.	.	4ccc	.	.
4AAn	.	4r	.	.	.	4cc	.	.
=42	=42	=42	=42	=42	=42	=42	=42	=42
4F#X	.	4r	.	4r	.	4r	.	V7/v
4DD	.	4d	.	4c	.	4aan	.	.
8EEnL	.	4d	.	4c	.	4an	.	.
8FF#XJ	.	.	.	.	.	.	.	.
=43	=43	=43	=43	=43	=43	=43	=43	=43
4GG'	.	4d	.	4B- 4g	.	[2.gg	.	v[v6
4B-'	.	4r	.	8r	.	.	.	.
.	.	.	.	8gL	.	.	.	.
4GG'	.	4r	.	8g	.	.	.	.
.	.	.	.	8gJ	.	.	.	.
=44	=44	=44	=44	=44	=44	=44	=44	=44
4GG	.	2.r	.	4g	.	2gg]	.	V7
4Bn	.	.	.	8r	.	.	.	.
.	.	.	.	8gL	.	.	.	.
4GG	.	.	.	8g	.	4ff	.	.
.	.	.	.	8gJ	.	.	.	.
=45	=45	=45	=45	=45	=45	=45	=45	=45
4GG	.	2.r	.	4g	.	(8ffL	.	i64
.	.	.	.	.	.	8ee-J)	.	.
4c	.	.	.	8r	.	4r	.	.
.	.	.	.	8gL	.	.	.	.
4GG	.	.	.	8g	.	4dd	.	.
.	.	.	.	8gJ	.	.	.	.
=46	=46	=46	=46	=46	=46	=46	=46	=46
4GG	.	2.r	.	4g	.	(8ffL	.	V7
.	.	.	.	.	.	8ee-J)	.	.
4Bn	.	.	.	8r	.	4r	.	.
.	.	.	.	8gL	.	.	.	.
4GG	.	.	.	8g	.	4dd	.	.
.	.	.	.	8gJ	.	.	.	.
=47	=47	=47	=47	=47	=47	=47	=47	=47
4GG	.	2.r	.	4g	.	(8ffL	.	i64
.	.	.	.	.	.	8ee-J)	.	.
4c	.	.	.	8r	.	4r	.	.
.	.	.	.	8gL	.	.	.	.
4GG	.	.	.	8g	.	4dd	.	.
.	.	.	.	8gJ	.	.	.	.
=48	=48	=48	=48	=48	=48	=48	=48	=48
4GG	.	2.r	.	4g	.	4ee-	.	.
4An	.	.	.	8r	.	4r	.	.
.	.	.	.	8gL	.	.	.	.
4GG	.	.	.	8g	.	4ff#X	.	.
.	.	.	.	8gJ	.	.	.	.
=49	=49	=49	=49	=49	=49	=49	=49	=49
!LO:TX:a:i:t=cresc.	!	!	!	!LO:TX:a:i:t=cresc.	!	!LO:TX:a:i:t=cresc.	!	!
4GG	.	2.r	.	[2.g	.	[2.gg	.	V
4G	.	.	.	.	.	.	.	.
4GG	.	.	.	.	.	.	.	.
=50	=50	=50	=50	=50	=50	=50	=50	=50
4GG	.	4r	.	2g]	.	2gg]	.	V]
!	!	!LO:TX:a:i:t=cresc.	!	!	!	!	!	!
(8GGL	.	(4Bn	.	.	.	.	.	.
8FF	.	.	.	.	.	.	.	.
8EE-	.	8cL	.	(8anL	.	(8aanL	.	.
8DDJ)	.	8dJ)	.	8bnJ)	.	8bbnJ)	.	.
=51	=51	=51	=51	=51	=51	=51	=51	=51
4CC	.	4C	.	[2.cc	.	[2.ccc	.	i[i
8r	.	4e-	.	.	.	.	.	.
8cL	.	.	.	.	.	.	.	.
8c	.	4C	.	.	.	.	.	.
8cJ	.	.	.	.	.	.	.	.
=52	=52	=52	=52	=52	=52	=52	=52	=52
4c	.	4C	.	(2cc]	.	(2ccc]	.	V7/iv
8r	.	4en	.	.	.	.	.	.
8cL	.	.	.	.	.	.	.	.
8c	.	4C	.	4b-X)	.	4bb-X)	.	.
8cJ	.	.	.	.	.	.	.	.
=53	=53	=53	=53	=53	=53	=53	=53	=53
4c	.	4C	.	(8b-L	.	(8bb-L	.	iv64
.	.	.	.	8a-XJ)	.	8aa-XJ)	.	.
8r	.	4f	.	4r	.	4r	.	.
8cL	.	.	.	.	.	.	.	.
8c	.	4C	.	4g	.	4gg	.	.
8cJ	.	.	.	.	.	.	.	.
=54	=54	=54	=54	=54	=54	=54	=54	=54
4c	.	4C	.	(8b-L	.	(8bb-L	.	V7/iv
.	.	.	.	8a-J)	.	8aa-J)	.	.
8r	.	4en	.	4r	.	4r	.	.
8cL	.	.	.	.	.	.	.	.
8c	.	4C	.	4g	.	4gg	.	.
8cJ	.	.	.	.	.	.	.	.
=55	=55	=55	=55	=55	=55	=55	=55	=55
4c	.	4C	.	(8b-L	.	(8bb-L	.	iv64
.	.	.	.	8a-J)	.	8aa-J)	.	.
8r	.	4f	.	4r	.	4r	.	.
8cL	.	.	.	.	.	.	.	.
8c	.	4C	.	4g	.	4gg	.	.
8cJ	.	.	.	.	.	.	.	.
=56	=56	=56	=56	=56	=56	=56	=56	=56
4c	.	4C	.	4a-	.	4aa-	.	.
8r	.	4d	.	4r	.	4r	.	.
8cL	.	.	.	.	.	.	.	.
8c	.	4C	.	4bn	.	4bbn	.	V
8cJ	.	.	.	.	.	.	.	.
=57	=57	=57	=57	=57	=57	=57	=57	=57
!LO:TX:b:i:t=dim.	!	!LO:TX:a:i:t=dim.	!	!LO:TX:a:i:t=dim.	!	!LO:TX:a:i:t=dim.	!	!
8cL	.	8e-XL	.	4.cc	.	4.ccc	.	i6
8cJ	.	8e-J	.	.	.	.	.	.
2e-	.	2g	.	.	.	.	.	.
.	.	.	.	8ccL	.	8cccL	.	.
.	.	.	.	8cc	.	8ccc	.	.
.	.	.	.	8ccJ	.	8bb-XJ	.	.
=58	=58	=58	=58	=58	=58	=58	=58	=58
8fL	.	8a-L	.	4cc	.	4.aa-	.	V65/III
8fJ	.	8a-J	.	.	.	.	.	.
2d	.	2f	.	8b-XL	.	.	.	.
.	.	.	.	8b-	.	8bb-L	.	.
.	.	.	.	8b-	.	8bb-	.	.
.	.	.	.	8b-J	.	8aa-J	.	.
=59	=59	=59	=59	=59	=59	=59	=59	=59
8e-L	.	8gL	.	4b-	.	4.gg	.	VI6
8e-J	.	8gJ	.	.	.	.	.	.
2c	.	2e-	.	8a-L	.	.	.	.
.	.	.	.	8a-	.	8aa-L	.	.
.	.	.	.	8a-	.	8aa-	.	.
.	.	.	.	8a-J	.	8ggJ	.	.
=60	=60	=60	=60	=60	=60	=60	=60	=60
8dL	.	8fL	.	4a-	.	4.ff	.	V65
8dJ	.	8fJ	.	.	.	.	.	.
2Bn	.	2d	.	8gL	.	.	.	.
.	.	.	.	8g	.	8ggL	.	.
.	.	.	.	8g	.	8gg	.	.
.	.	.	.	8gJ	.	8ffJ	.	.
=61	=61	=61	=61	=61	=61	=61	=61	=61
8cL	p	8e-L	p	4g	p	4.ee-	p	i6
8CJ	.	8E-J	.	.	.	.	.	.
2E-	.	2G	.	8cL	.	.	.	.
.	.	.	.	8c	.	8ccL	.	.
.	.	.	.	8c	.	8cc	.	.
.	.	.	.	8cJ	.	8b-J	.	.
=62	=62	=62	=62	=62	=62	=62	=62	=62
!	!	!LO:TX:a:i:t=piu p	!	!	!	!	!	!
!LO:TX:a:i:t=piu p	!	!LO:TX:a:i:t=piu p	!	!	!	!LO:TX:a:i:t=piu p	!	!
8FL	.	8A-L	.	4c	.	4.a-	.	V65/III
8FJ	.	8A-J	.	.	.	.	.	.
2D	.	2F	.	8B-XL	.	.	.	.
.	.	.	.	8B-	.	8b-L	.	.
.	.	.	.	8B-	.	8b-	.	.
.	.	.	.	8B-J	.	8a-J	.	.
=63	=63	=63	=63	=63	=63	=63	=63	=63
8E-L	.	8GL	.	4B-	.	4.g	.	VI6
8E-J	.	8GJ	.	.	.	.	.	.
2C	.	2E-	.	8A-L	.	.	.	.
.	.	.	.	8A-	.	8a-L	.	.
.	.	.	.	8A-	.	8a-	.	.
.	.	.	.	8A-J	.	8gJ	.	.
=64	=64	=64	=64	=64	=64	=64	=64	=64
8DL	.	8FL	.	4A-	.	4.f	.	V65
8DJ	.	8FJ	.	.	.	.	.	.
2BBn	.	2D	.	8GL	.	.	.	.
.	.	.	.	8G	.	8gL	.	.
.	.	.	.	8G	.	8g	.	.
.	.	.	.	8GJ	.	8fJ	.	.
=65	=65	=65	=65	=65	=65	=65	=65	=65
8CL	.	8E-L	.	4G	.	4.e-	.	iv6
8CJ	.	8E-J	.	.	.	.	.	.
2AA-	.	2C	.	8cL	.	.	.	.
.	.	.	.	8c	.	8fL	.	.
.	.	.	.	8c	.	8e-	.	.
.	.	.	.	8cJ	.	8fJ	.	.
=66	=66	=66	=66	=66	=66	=66	=66	=66
8GGL	.	8DL	.	4c	.	4.g	.	V7
8GGJ	.	8DJ	.	.	.	.	.	.
2GG	.	2D	.	8BnL	.	.	.	.
.	.	.	.	8B	.	8gL	.	.
.	.	.	.	8B	.	8g	.	.
.	.	.	.	8BJ	.	8fJ	.	.
=67	=67	=67	=67	=67	=67	=67	=67	=67
8CL	.	8E-L	.	4G	.	4.e-	.	iv6
8CJ	.	8E-J	.	.	.	.	.	.
2AA-	.	2C	.	8cL	.	.	.	.
.	.	.	.	8c	.	8fL	.	.
.	.	.	.	8c	.	8e-	.	.
.	.	.	.	8cJ	.	8fJ	.	.
=68	=68	=68	=68	=68	=68	=68	=68	=68
8GGL	.	8DL	.	4c	.	4.g	.	V7
8GGJ	.	8DJ	.	.	.	.	.	.
2GG	.	2D	.	8BnL	.	.	.	.
.	.	.	.	8B	.	8gL	.	.
.	.	.	.	8B	.	8g	.	.
.	.	.	.	8BJ	.	8gJ	.	.
=69	=69	=69	=69	=69	=69	=69	=69	=69
8GGL	pp pp	4D	pp	4Bn	.	4g	pp	V
8GG	.	.	.	.	.	.	.	.
8AA-	.	4r	.	4r	.	4r	.	.
8AA-	.	.	.	.	.	.	.	.
8GG	.	4r	.	4r	.	4r	.	.
8GGJ	.	.	.	.	.	.	.	.
=70	=70	=70	=70	=70	=70	=70	=70	=70
8FFL	.	2.r	.	4c	.	4a-	.	iv
8FF	.	.	.	.	.	.	.	.
8GG	.	.	.	4r	.	4r	.	.
8GG	.	.	.	.	.	.	.	.
8FF	.	.	.	4r	.	4r	.	.
8FFJ	.	.	.	.	.	.	.	.
=71	=71	=71	=71	=71	=71	=71	=71	=71
8EE-L	.	4G	.	4c	.	4an	.	ii%43/v
8EE-	.	.	.	.	.	.	.	.
8FF	.	4r	.	4r	.	4r	.	.
8FF	.	.	.	.	.	.	.	.
8EE-	.	4r	.	4r	.	4r	.	.
8EE-J	.	.	.	.	.	.	.	.
=72	=72	=72	=72	=72	=72	=72	=72	=72
8DDL	.	4G	.	4d	.	4bn	.	V64
8DD	.	.	.	.	.	.	.	.
8EE-	.	4r	.	4r	.	4r	.	.
8EE-	.	.	.	.	.	.	.	.
8DD	.	4r	.	4r	.	4r	.	.
8DDJ	.	.	.	.	.	.	.	.
=73	=73	=73	=73	=73	=73	=73	=73	=73
!	!	!LO:TX:a:i:t=sempre pp	!	!	!	!	!	!
!	!	!LO:TX:a:i:t=sempre pp	!	!	!	!LO:TX:a:i:t=sempre pp	!	!
8CCL	.	4G	.	4e-	.	4cc	.	i
8GG	.	.	.	.	.	.	.	.
8GG	.	4r	.	4r	.	4r	.	.
8GG	.	.	.	.	.	.	.	.
8GG	.	8GL	.	8dL	.	8bnL	.	V
8GGJ	.	8GJ	.	8dJ	.	8bJ	.	.
=74	=74	=74	=74	=74	=74	=74	=74	=74
8CCL	.	4G	.	4e-	.	4cc	.	i
8GG	.	.	.	.	.	.	.	.
8GG	.	4r	.	4r	.	4r	.	.
8GG	.	.	.	.	.	.	.	.
8GG	.	8GL	.	8dL	.	8bnL	.	V
8GGJ	.	8GJ	.	8dJ	.	8bJ	.	.
=75	=75	=75	=75	=75	=75	=75	=75	=75
8CCL	.	4G	.	4e-	.	4cc	.	i
8GG	.	.	.	.	.	.	.	.
8GG	.	4r	.	4r	.	4r	.	.
8GG	.	.	.	.	.	.	.	.
8GG	.	8GL	.	8dL	.	8bnL	.	V
8GGJ	.	8GJ	.	8dJ	.	8bJ	.	.
=76	=76	=76	=76	=76	=76	=76	=76	=76
8CCL	.	4G	.	4e-	.	4cc	.	i
8GG	.	.	.	.	.	.	.	.
8GG	.	4r	.	4r	.	4r	.	.
8GG	.	.	.	.	.	.	.	.
8GG	.	8GL	.	8dL	.	8bnL	.	V
8GGJ	.	8GJ	.	8dJ	.	8bJ	.	.
=77	=77	=77	=77	=77	=77	=77	=77	=77
4GG	f f	4G	f	4d	.	4bn	f	V\\
8r	.	8r	.	8r	.	8r	.	.
=78:|!	=78:|!	=78:|!	=78:|!	=78:|!	=78:|!	=78:|!	=78:|!	=78:|!
*k[]	*	*k[]	*	*k[]	*	*k[]	*	*
*C:	*	*C:	*	*C:	*	*C:	*	*
4CC	f f	4C 4G	f	4c 4en	f	4G 4en 4cc	.	I.I\\
!	!	!	!	!	!	!LO:TX:a:B:t=Piu presto quasi prestissimo	!	!
4r	.	4r	.	4r	.	4r	.	.
4r	.	4r	.	4r	.	4r	.	.
=79	=79	=79	=79	=79	=79	=79	=79	=79
4c	ff	2.r	.	2.r	.	2.r	.	I
4d	.	.	.	.	.	.	.	.
4e	.	.	.	.	.	.	.	.
=80	=80	=80	=80	=80	=80	=80	=80	=80
4d	.	2.r	.	2.r	.	2.r	.	.
4c	.	.	.	.	.	.	.	.
4B	.	.	.	.	.	.	.	.
=81	=81	=81	=81	=81	=81	=81	=81	=81
4A	.	2.r	.	2.r	.	2.r	.	.
4G	.	.	.	.	.	.	.	.
4F	.	.	.	.	.	.	.	.
=82	=82	=82	=82	=82	=82	=82	=82	=82
4E	.	2.r	.	2.r	.	2.r	.	.
4F	.	.	.	.	.	.	.	.
4G	.	.	.	.	.	.	.	.
=83	=83	=83	=83	=83	=83	=83	=83	=83
4A	.	2.r	.	2.r	.	2.r	.	.
4B	.	.	.	.	.	.	.	.
4c	.	.	.	.	.	.	.	.
=84	=84	=84	=84	=84	=84	=84	=84	=84
4B	.	2.r	.	2.r	.	2.r	.	.
4A	.	.	.	.	.	.	.	.
4G	.	.	.	.	.	.	.	.
=85	=85	=85	=85	=85	=85	=85	=85	=85
4F	.	2.r	.	2.r	.	2.r	.	.
4E	.	.	.	.	.	.	.	.
4D	.	.	.	.	.	.	.	.
=86	=86	=86	=86	=86	=86	=86	=86	=86
4C	.	2.r	.	2.r	.	2.r	.	I
4D	.	.	.	.	.	.	.	.
4E	.	.	.	.	.	.	.	.
=87	=87	=87	=87	=87	=87	=87	=87	=87
4F	.	[2.c	f	2.r	.	2.r	.	IV
4G	.	.	.	.	.	.	.	.
4A	.	.	.	.	.	.	.	.
=88	=88	=88	=88	=88	=88	=88	=88	=88
4G	.	2.c]	.	2.r	.	2.r	.	.
4F	.	.	.	.	.	.	.	.
4E	.	.	.	.	.	.	.	.
=89	=89	=89	=89	=89	=89	=89	=89	=89
4D	.	2.d'	.	2.r	.	2.r	.	ii
4C	.	.	.	.	.	.	.	.
4BB	.	.	.	.	.	.	.	.
=90	=90	=90	=90	=90	=90	=90	=90	=90
4AA	.	2.e'	.	2.r	.	2.r	.	vi
4BB	.	.	.	.	.	.	.	.
4C	.	.	.	.	.	.	.	.
=91	=91	=91	=91	=91	=91	=91	=91	=91
4D	.	2.d'	.	2.r	.	2.r	.	V/V
4E	.	.	.	.	.	.	.	.
4F#X	.	.	.	.	.	.	.	.
=92	=92	=92	=92	=92	=92	=92	=92	=92
4G	.	2.B'	.	2.r	.	2.r	.	V.I
4F#X	.	.	.	.	.	.	.	.
4E	.	.	.	.	.	.	.	.
=93	=93	=93	=93	=93	=93	=93	=93	=93
4D	.	2.d'	.	2.r	.	2.r	.	V
4C	.	.	.	.	.	.	.	.
4BB	.	.	.	.	.	.	.	.
=94	=94	=94	=94	=94	=94	=94	=94	=94
4AA	.	2.e'	.	2.r	.	2.r	.	ii
4BB	.	.	.	.	.	.	.	.
4C	.	.	.	.	.	.	.	.
=95	=95	=95	=95	=95	=95	=95	=95	=95
4D	.	2.d'	.	2.r	.	2.r	.	V
4E	.	.	.	.	.	.	.	.
4F#X	.	.	.	.	.	.	.	.
=96	=96	=96	=96	=96	=96	=96	=96	=96
4G	.	4B	.	2.r	.	2.r	.	I.V
4r	.	4r	.	.	.	.	.	.
4r	.	4r	.	.	.	.	.	.
=97	=97	=97	=97	=97	=97	=97	=97	=97
2.r	.	2.r	.	[2.c	ff	4ccc	ff	I
.	.	.	.	.	.	4ddd	.	.
.	.	.	.	.	.	4eee	.	.
=98	=98	=98	=98	=98	=98	=98	=98	=98
2.r	.	[2.d	ff	2.c]	.	4ddd	.	ii2
.	.	.	.	.	.	4ccc	.	.
.	.	.	.	.	.	4bb	.	.
=99	=99	=99	=99	=99	=99	=99	=99	=99
2.r	.	2.d_	.	2.B	.	4aa	.	V65
.	.	.	.	.	.	4gg	.	.
.	.	.	.	.	.	4ff	.	.
=100	=100	=100	=100	=100	=100	=100	=100	=100
2.r	.	2.d]	.	[2.e	.	4ee	.	iii2
.	.	.	.	.	.	4ff	.	.
.	.	.	.	.	.	4gg	.	.
=101	=101	=101	=101	=101	=101	=101	=101	=101
2.r	.	2.c	.	2.e_	.	4aa	.	vi
.	.	.	.	.	.	4bb	.	.
.	.	.	.	.	.	4ccc	.	.
=102	=102	=102	=102	=102	=102	=102	=102	=102
2.r	.	[2.f	.	2.e]	.	4bb	.	IV2
.	.	.	.	.	.	4aa	.	.
.	.	.	.	.	.	4gg	.	.
=103	=103	=103	=103	=103	=103	=103	=103	=103
2.r	.	2.f_	.	2.d'	.	4ff	.	ii
.	.	.	.	.	.	4ee	.	.
.	.	.	.	.	.	4dd	.	.
=104	=104	=104	=104	=104	=104	=104	=104	=104
2.r	.	2f]	.	2.g'	.	4cc	.	V2(4)
.	.	.	.	.	.	4dd	.	V2
.	.	4e	.	.	.	4ee	.	I6
=105	=105	=105	=105	=105	=105	=105	=105	=105
[2.AA	ff	[2.c	.	[2.cc	.	4ff	.	IV6
.	.	.	.	.	.	4gg	.	.
.	.	.	.	.	.	4aa	.	.
=106	=106	=106	=106	=106	=106	=106	=106	=106
2.AA]	.	2.c]	.	2.cc]	.	4ff#X	.	#viio6/V
.	.	.	.	.	.	4gg	.	.
.	.	.	.	.	.	4aa	.	.
=107	=107	=107	=107	=107	=107	=107	=107	=107
2.GG'	.	2.B'	.	2.dd'	.	4bb	.	V
.	.	.	.	.	.	4ccc	.	.
.	.	.	.	.	.	4ddd	.	.
=108	=108	=108	=108	=108	=108	=108	=108	=108
2.CC'	.	2.C' 2.c	.	2.ee'	.	4aa	.	V.ii6
.	.	.	.	.	.	4eee	.	.
.	.	.	.	.	.	4eee	.	.
=109	=109	=109	=109	=109	=109	=109	=109	=109
2.DD'	.	2.D' 2.c	.	2.dd'	.	4ddd	.	V7
.	.	.	.	.	.	4eee	.	.
.	.	.	.	.	.	4fff#X	.	.
=110	=110	=110	=110	=110	=110	=110	=110	=110
2.GG'	.	2.D' 2.B	.	2.b'	.	4ggg	.	I
.	.	.	.	.	.	4fff#X	.	.
.	.	.	.	.	.	4eee	.	.
=111	=111	=111	=111	=111	=111	=111	=111	=111
2.G'	.	2.D' 2.B	.	2.dd'	.	4ddd	.	.
.	.	.	.	.	.	4ccc	.	.
.	.	.	.	.	.	4bb	.	.
=112	=112	=112	=112	=112	=112	=112	=112	=112
2.C'	.	2.D' 2.c	.	2.ee'	.	4aa	.	ii6
.	.	.	.	.	.	4eee	.	.
.	.	.	.	.	.	4eee	.	.
=113	=113	=113	=113	=113	=113	=113	=113	=113
2.D'	.	2.D' 2.c	.	2.d' 2.dd	.	4ddd	.	V7
.	.	.	.	.	.	4eee	.	.
.	.	.	.	.	.	4fff#X	.	.
=114	=114	=114	=114	=114	=114	=114	=114	=114
4GG	.	4D 4B	.	4d 4b	.	4ggg	.	I\\
4r	.	4r	.	4r	.	4r	.	.
4r	.	4r	.	4r	.	4r	.	.
=115	=115	=115	=115	=115	=115	=115	=115	=115
!	!	!	!	!	!	!LO:TX:a:i:t=sempre ff	!	!
[2.GG	.	[2.G	.	2.r	.	4gg	.	i.i
.	.	.	.	.	.	4aa	.	.
.	.	.	.	.	.	4bb-X	.	.
=116	=116	=116	=116	=116	=116	=116	=116	=116
2.GG]	.	2.G]	.	2.r	.	4aa	.	.
.	.	.	.	.	.	4gg	.	.
.	.	.	.	.	.	4ffn	.	.
=117	=117	=117	=117	=117	=117	=117	=117	=117
2.AA'	.	2.A'	.	2.r	.	4ee	.	iio
.	.	.	.	.	.	4dd	.	.
.	.	.	.	.	.	4cc	.	.
=118	=118	=118	=118	=118	=118	=118	=118	=118
2.BB-X'	.	2.B-X'	.	2.r	.	4b-X	.	III
.	.	.	.	.	.	4a	.	.
.	.	.	.	.	.	4g	.	.
=119	=119	=119	=119	=119	=119	=119	=119	=119
2.C#X'	.	2.c#X'	.	2.r	.	4fn	.	V6/V
.	.	.	.	.	.	4e	.	.
.	.	.	.	.	.	4d	.	.
=120	=120	=120	=120	=120	=120	=120	=120	=120
2.E'	.	2.e'	.	2.r	.	4c#X	.	V64/V
.	.	.	.	.	.	4B-X	.	.
.	.	.	.	.	.	4A	.	.
=121	=121	=121	=121	=121	=121	=121	=121	=121
4G	.	4g	.	2.G'	.	2.G' 2.g	.	iv/V
4F	.	4f	.	.	.	.	.	.
4E	.	4e	.	.	.	.	.	.
=122	=122	=122	=122	=122	=122	=122	=122	=122
4D	.	4d	.	2.c#X'	.	2.cc#X'	.	V6/V
4C#X	.	4c#X	.	.	.	.	.	.
4BB-X	.	4B-X	.	.	.	.	.	.
=123	=123	=123	=123	=123	=123	=123	=123	=123
4AA	.	4A	.	2.e'	.	2.ee'	.	V/V
4GG	.	4G	.	.	.	.	.	.
4FF	.	4F	.	.	.	.	.	.
=124	=124	=124	=124	=124	=124	=124	=124	=124
4EE	.	4E	.	2.ee' 2.gg	.	2.cc#X' 2.aa	.	V43/V
4DD	.	4D	.	.	.	.	.	.
4CC#X	.	4C#X	.	.	.	.	.	.
=125	=125	=125	=125	=125	=125	=125	=125	=125
4EE	.	4E	.	2.ee' 2.gg	.	2.cc#X' 2.aa	.	V43/V
4AA	.	4A	.	.	.	.	.	.
4C#X	.	4c#X	.	.	.	.	.	.
=126	=126	=126	=126	=126	=126	=126	=126	=126
4E	.	4e	.	4g	.	4cc#X 4aa	.	V43/V
4r	.	4r	.	4r	.	4r	.	.
4r	.	4r	.	4r	.	4r	.	.
=127	=127	=127	=127	=127	=127	=127	=127	=127
!LO:TX:a:i:t=sempre f	!	!	!	!	!	!LO:TX:a:i:t=sempre f	!	!
[2.DD	.	[2.D	.	2.r	.	4ff	.	ii.i
.	.	.	.	.	.	4gg	.	.
.	.	.	.	.	.	4aa	.	.
=128	=128	=128	=128	=128	=128	=128	=128	=128
2.DD]	.	2.D]	.	2.r	.	4gg	.	i
.	.	.	.	.	.	4ff	.	.
.	.	.	.	.	.	4ee	.	.
=129	=129	=129	=129	=129	=129	=129	=129	=129
2.EE'	.	2.E'	.	2.r	.	4dd	.	ii7
.	.	.	.	.	.	4ccn	.	.
.	.	.	.	.	.	4b	.	.
=130	=130	=130	=130	=130	=130	=130	=130	=130
2.FF'	.	2.F'	.	2.r	.	4a	.	III
.	.	.	.	.	.	4g	.	.
.	.	.	.	.	.	4f	.	.
=131	=131	=131	=131	=131	=131	=131	=131	=131
2.BBn'	.	2.Bn'	.	2.r	.	4e	.	I.V6
.	.	.	.	.	.	4d	.	.
.	.	.	.	.	.	4cn	.	.
=132	=132	=132	=132	=132	=132	=132	=132	=132
2.D'	.	2.d'	.	2.r	.	4Bn	.	V64
.	.	.	.	.	.	4A	.	.
.	.	.	.	.	.	4G	.	.
=133	=133	=133	=133	=133	=133	=133	=133	=133
4F	.	4f	.	2.f'	.	2.ff'	.	V2
4E	.	4e	.	.	.	.	.	.
4D	.	4d	.	.	.	.	.	.
=134	=134	=134	=134	=134	=134	=134	=134	=134
4Cn	.	4cn	.	2.b'	.	2.bb'	.	.
4BB	.	4B	.	.	.	.	.	.
4AA	.	4A	.	.	.	.	.	.
=135	=135	=135	=135	=135	=135	=135	=135	=135
4GG	.	4G	.	2.dd'	.	2.ddd'	.	V
4FF	.	4F	.	.	.	.	.	.
4EE	.	4E	.	.	.	.	.	.
=136	=136	=136	=136	=136	=136	=136	=136	=136
4DD	.	4D	.	2.dd' 2.ff	.	2.b' 2.gg	.	V43
4CC	.	4C	.	.	.	.	.	.
4BB	.	4D	.	.	.	.	.	.
=137	=137	=137	=137	=137	=137	=137	=137	=137
4D	.	4F	.	2.dd' 2.ff	.	2.b' 2.gg	.	.
4F	.	4B	.	.	.	.	.	.
4B	.	4d	.	.	.	.	.	.
=138	=138	=138	=138	=138	=138	=138	=138	=138
4d	.	4f	.	4dd 4ff	.	4b 4gg	.	.
4r	.	4r	.	4r	.	4r	.	.
4r	.	4r	.	4r	.	4r	.	.
=139	=139	=139	=139	=139	=139	=139	=139	=139
4c	.	4cc	.	2.r	.	[2.cc	.	I\\
4d	.	4dd	.	.	.	.	.	.
4e	.	4ee	.	.	.	.	.	.
=140	=140	=140	=140	=140	=140	=140	=140	=140
4d	.	4dd	.	[2.dd	.	2.cc]	.	ii7
4c	.	4cc	.	.	.	.	.	.
4B	.	4b	.	.	.	.	.	.
=141	=141	=141	=141	=141	=141	=141	=141	=141
4A	.	4a	.	2.dd_	.	2.b	.	V2
4G	.	4g	.	.	.	.	.	.
4F	.	4f	.	.	.	.	.	.
=142	=142	=142	=142	=142	=142	=142	=142	=142
4E	.	4e	.	2.dd]	.	[2.ee	.	iii7
4F	.	4f	.	.	.	.	.	.
4G	.	4g	.	.	.	.	.	.
=143	=143	=143	=143	=143	=143	=143	=143	=143
4A	.	4a	.	2.cc	.	2.ee_	.	vi
4B	.	4b	.	.	.	.	.	.
4c	.	4cc	.	.	.	.	.	.
=144	=144	=144	=144	=144	=144	=144	=144	=144
4B	.	4b	.	[2.ff	.	2.ee]	.	V65(6)
4A	.	4a	.	.	.	.	.	.
4G	.	4g	.	.	.	.	.	.
=145	=145	=145	=145	=145	=145	=145	=145	=145
4F	.	4f	.	2.ff_	.	2.dd	.	ii6
4E	.	4e	.	.	.	.	.	.
4D	.	4d	.	.	.	.	.	.
=146	=146	=146	=146	=146	=146	=146	=146	=146
4C	.	4c	.	2.ff]	.	[2.gg	.	I(4)
4D	.	4d	.	.	.	.	.	.
4C	.	4c	.	.	.	.	.	.
=147	=147	=147	=147	=147	=147	=147	=147	=147
4BB-X	.	4B-X	.	2ee	.	2.gg]	.	V2/IV
4AA	.	4A	.	.	.	.	.	.
4GG	.	4G	.	4e	.	.	.	.
=148	=148	=148	=148	=148	=148	=148	=148	=148
4FF	.	4F	.	2.cc'	.	2.aa'	.	IV
4GG	.	4G	.	.	.	.	.	.
4FF	.	4F	.	.	.	.	.	.
=149	=149	=149	=149	=149	=149	=149	=149	=149
4EE	.	4E	.	2.dd'	.	2.bb'	.	V
4DD	.	4D	.	.	.	.	.	.
4GG	.	4G	.	.	.	.	.	.
=150	=150	=150	=150	=150	=150	=150	=150	=150
4CC	.	4C	.	2.ee'	.	2.ccc'	.	I\\
4D	.	4d	.	.	.	.	.	.
4C	.	4c	.	.	.	.	.	.
=151	=151	=151	=151	=151	=151	=151	=151	=151
4BB-X	.	4B-X	.	2.ee' 2.gg	.	2.ccc'	.	V2/IV
4AA	.	4A	.	.	.	.	.	.
4GG	.	4G	.	.	.	.	.	.
=152	=152	=152	=152	=152	=152	=152	=152	=152
4FF	.	4F	.	2.aa'	.	2.ccc'	.	IV
4GG	.	4G	.	.	.	.	.	.
4FF	.	4F	.	.	.	.	.	.
=153	=153	=153	=153	=153	=153	=153	=153	=153
4EE	.	4E	.	2.bb'	.	2.ddd'	.	V
4DD	.	4D	.	.	.	.	.	.
4GG	.	4G	.	.	.	.	.	.
=154	=154	=154	=154	=154	=154	=154	=154	=154
4CC	.	4C	.	4ccc	.	4eee	.	I\\
4r	.	4r	.	4cc	.	4ccc	.	.
4r	.	4r	.	4b	.	4bb	.	.
=155	=155	=155	=155	=155	=155	=155	=155	=155
[2.C	.	2.r	.	4cc	.	4ccc	.	.
.	.	.	.	4dd	.	4ddd	.	.
.	.	.	.	4ee	.	4eee	.	.
=156	=156	=156	=156	=156	=156	=156	=156	=156
2.C]	.	[2.D	.	4dd	.	4ddd	.	ii2
.	.	.	.	4cc	.	4ccc	.	.
.	.	.	.	4b	.	4bb	.	.
=157	=157	=157	=157	=157	=157	=157	=157	=157
2.BB'	.	2.D_	.	4a	.	4aa	.	V65
.	.	.	.	4g	.	4gg	.	.
.	.	.	.	4f	.	4ff	.	.
=158	=158	=158	=158	=158	=158	=158	=158	=158
[2.E	.	2.D]	.	4e	.	4ee	.	iii2
.	.	.	.	4f	.	4ff	.	.
.	.	.	.	4g	.	4gg	.	.
=159	=159	=159	=159	=159	=159	=159	=159	=159
2.E_	.	2.C'	.	4a	.	4aa	.	vi6
.	.	.	.	4b	.	4bb	.	.
.	.	.	.	4cc	.	4ccc	.	.
=160	=160	=160	=160	=160	=160	=160	=160	=160
2.E]	.	[2.F	.	4b	.	4bb	.	IV2
.	.	.	.	4a	.	4aa	.	.
.	.	.	.	4g	.	4gg	.	.
=161	=161	=161	=161	=161	=161	=161	=161	=161
2.D'	.	2.F_	.	4f	.	4ff	.	ii
.	.	.	.	4e	.	4ee	.	.
.	.	.	.	4d	.	4dd	.	.
=162	=162	=162	=162	=162	=162	=162	=162	=162
[2.G	.	2F]	.	4c	.	4cc	.	V(64)
.	.	.	.	4d	.	4dd	.	.
.	.	4E	.	4e	.	4ee	.	.
=163	=163	=163	=163	=163	=163	=163	=163	=163
2G]	.	2.A	.	4f	.	4ff	.	IV(2)
.	.	.	.	4g	.	4gg	.	.
4F	.	.	.	4a	.	4aa	.	IV
=164	=164	=164	=164	=164	=164	=164	=164	=164
2BB	sf	2B	sf	4g	.	4gg	.	V65
.	.	.	.	4f	.	4ff	.	.
4GG	.	4G	.	4e	.	4ee	.	.
=165	=165	=165	=165	=165	=165	=165	=165	=165
2D	sf	2d	sf	4d	.	4dd	.	V
.	.	.	.	4c	.	4cc	.	.
4BB	.	4B	.	4B	.	4b	.	.
=166	=166	=166	=166	=166	=166	=166	=166	=166
2.r	.	4r	.	2f	sf	[2.aa-X	sf	iio7
.	.	4r	.	.	.	.	.	.
.	.	4r	.	4d	.	.	.	.
=167	=167	=167	=167	=167	=167	=167	=167	=167
2.r	.	2f	sf	2b	.	2.aa-_	.	#viio65
.	.	4d	.	4f	.	.	.	.
=168	=168	=168	=168	=168	=168	=168	=168	=168
2.r	.	2b	.	2dd	.	2.aa-_	.	#viio43
.	.	4f	.	4b	.	.	.	.
=169	=169	=169	=169	=169	=169	=169	=169	=169
2.r	.	2dd	.	2ff	.	2.aa-_	.	#viio7
.	.	4b	.	4dd	.	.	.	.
=	=	=	=	=	=	=	=	=
4.b;	sf	4.dd;	sf	4.ff;	sf	4.aa-;]	.	.
=170!|:	=170!|:	=170!|:	=170!|:	=170!|:	=170!|:	=170!|:	=170!|:	=170!|:
*k[b-e-a-]	*	*k[b-e-a-]	*	*k[b-e-a-]	*	*k[b-e-a-]	*	*
*c:	*	*c:	*	*c:	*	*c:	*	*
!	!	!	!	!	!	!LO:TX:a:B:t=Tempo primo	!	!
8r	.	8r	.	8r	.	8ccL	f	i.i
4r	.	4r	.	4r	.	8cc	.	.
.	.	.	.	.	.	8ccJ	.	.
=171	=171	=171	=171	=171	=171	=171	=171	=171
4CC 4C	f f	8cL	.	8e-L	f	4.c	.	i
.	.	8d	.	8f	.	.	.	.
4r	.	8e-	.	8g	.	.	.	.
.	.	8f	.	8a-	.	8ee-L	.	.
4r	.	8e-	.	8g	.	8ee-	.	.
.	.	8dJ	.	8fJ	.	8ee-J	.	.
=172	=172	=172	=172	=172	=172	=172	=172	=172
4CC 4C	.	8cL	.	8e-L	.	4.e-	.	.
.	.	8d	.	8f	.	.	.	.
4r	.	8e-	.	8g	.	.	.	.
.	.	8f	.	8a-	.	8ggL	.	.
4r	.	8e-	.	8g	.	8gg	.	.
.	.	8dJ	.	8fJ	.	8ggJ	.	.
=173	=173	=173	=173	=173	=173	=173	=173	=173
4CC 4C	.	8cL	.	8e-L	.	4cc'	.	.
.	.	8d	.	8f	.	.	.	.
4CC 4C	.	8e-	.	8g	.	4ccc'	.	.
.	.	8f	.	8a-	.	.	.	.
4CC 4C	.	8f#X	.	8an	.	4cc'	.	#viio64/V
.	.	8f#J	.	8aJ	.	.	.	.
=174	=174	=174	=174	=174	=174	=174	=174	=174
4GG	.	8gL	.	8bnL	.	4bn	.	V
.	.	8an	.	8cc	.	.	.	.
4r	.	8bn	.	8dd	.	8r	.	.
.	.	8b	p	8dd	p	8ggL	p	.
4r	.	8b	.	8dd	.	8gg	.	.
.	.	8bJ	.	8ddJ	.	8ggJ	.	.
=175	=175	=175	=175	=175	=175	=175	=175	=175
2.r	.	8ccL	.	8ee-L	.	8aa-L	.	.
.	.	8b-	.	8dd	.	8gg	.	.
.	.	8an	.	8cc	.	8ff#X	.	.
.	.	8bn	.	8dd	.	8gg	.	.
.	.	8g	.	8bn	.	8dd	.	.
.	.	8gJ	.	8bJ	.	8ddJ	.	.
=176	=176	=176	=176	=176	=176	=176	=176	=176
2.r	.	8gL	.	8ccL	.	8ee-L	.	.
.	.	8d	.	8g	.	8bn	.	.
.	.	8e-	.	8g	.	8cc	.	.
.	.	8Bn	.	8d	.	8g	.	.
.	.	8c	.	8e-	.	8a-	.	.
.	.	8cJ	.	8e-J	.	8a-J	.	.
=177	=177	=177	=177	=177	=177	=177	=177	=177
8GGL	p	4Bn	.	4d	.	4g	.	.
8AA-J	.	.	.	.	.	.	.	.
8AA-L	.	4r	.	4r	.	4r	.	.
8AA-J	.	.	.	.	.	.	.	.
8AA-L	.	4r	.	4r	.	4r	.	.
8AA-J	.	.	.	.	.	.	.	.
=	=	=	=	=	=	=	=	=
4GG	.	4.r	.	4.r	.	4r	.	.
8r	.	.	.	.	.	8r	.	.
=178:|!	=178:|!	=178:|!	=178:|!	=178:|!	=178:|!	=178:|!	=178:|!	=178:|!
8AA-L	f	8A-L	f f	8A-L	.	8A-L	f	VI
8AA-	.	8A-	.	8A-	.	8A-	.	.
8AA-J	.	8A-J	.	8A-J	.	8A-J	.	.
=179	=179	=179	=179	=179	=179	=179	=179	=179
4.GG	.	4.G	.	4.G	.	4.G	.	V
8AA-L	.	8A-L	.	8A-L	.	8A-L	.	VI
8AA-	.	8A-	.	8A-	.	8A-	.	.
8AA-J	.	8A-J	.	8A-J	.	8A-J	.	.
=180	=180	=180	=180	=180	=180	=180	=180	=180
4.GG	.	4.G	.	4.G	.	4.G	.	V
8AA-L	.	8A-L	.	8A-L	.	8A-L	.	VI
8AA-	.	8A-	.	8A-	.	8A-	.	.
8AA-J	.	8A-J	.	8A-J	.	8A-J	.	.
=181	=181	=181	=181	=181	=181	=181	=181	=181
4.GG	.	4.G	.	4.G	.	4.G	.	V
8AA-L	.	8A-L	.	8A-L	.	8A-L	.	VI
8AA-	.	8A-	.	8A-	.	8A-	.	.
8AA-J	.	8A-J	.	8A-J	.	8A-J	.	.
=182	=182	=182	=182	=182	=182	=182	=182	=182
4.GG	.	4.G	.	4.G	.	4.G	.	V
8DD-XL	.	8D-XL	.	8d-XL	.	8d-XL	.	iv.VI
8DD-	.	8D-	.	8d-	.	8d-	.	.
8DD-J	.	8D-J	.	8d-J	.	8d-J	.	.
=183	=183	=183	=183	=183	=183	=183	=183	=183
4.CC	.	4.C	.	4.c	.	4.c	.	V
8DD-XL	.	8D-XL	.	8d-XL	.	8d-XL	.	VI
8DD-	.	8D-	.	8d-	.	8d-	.	.
8DD-J	.	8D-J	.	8d-J	.	8d-J	.	.
=184	=184	=184	=184	=184	=184	=184	=184	=184
4.CC	.	4.C	.	4.c	.	4.c	.	V
8DD-XL	.	8D-XL	.	8d-XL	.	8d-XL	.	VI
8DD-	.	8D-	.	8d-	.	8d-	.	.
8DD-J	.	8D-J	.	8d-J	.	8d-J	.	.
=185	=185	=185	=185	=185	=185	=185	=185	=185
4.CC	.	4.C	.	4.c	.	4.c	.	V
8DD-XL	.	8D-XL	.	8d-XL	.	8d-XL	.	VI
8DD-	.	8D-	.	8d-	.	8d-	.	.
8DD-J	.	8D-J	.	8d-J	.	8d-J	.	.
=186	=186	=186	=186	=186	=186	=186	=186	=186
4.CC	.	4.C	.	4.c	.	4.c	.	.bII.vii
8CL	.	8E-L	.	8A-L	.	8a-L	.	V6
8C	.	8E-	.	8A-	.	8a-	.	.
8CJ	.	8E-J	.	8A-J	.	8a-J	.	.
=187	=187	=187	=187	=187	=187	=187	=187	=187
4D-X	.	8FL 8A-	.	4A- 4f	.	8fL	.	I
.	.	8F 8A-	.	.	.	8d-X	.	.
4r	.	8F 8A-	.	4r	.	8f	.	.
.	.	8F 8A-	.	.	.	8a-	.	.
4r	.	8F 8A-	.	4r	.	8dd-X	.	.
.	.	8FJ 8A-	.	.	.	8ffJ	.	.
=188	=188	=188	=188	=188	=188	=188	=188	=188
4D-X	.	8FL 8A-	.	8fL	.	4aa-	.	.
.	.	8F 8A-	.	8d-X	.	.	.	.
4r	.	8F 8A-	.	8f	.	4r	.	.
.	.	8F 8A-	.	8a-	.	.	.	.
4r	.	8F 8A-	.	8dd-X	.	4ff	.	.
.	.	8FJ 8A-	.	8ffJ	.	.	.	.
=189	=189	=189	=189	=189	=189	=189	=189	=189
4GG-X	ff ff	8B-L	ff	[2.b-	.	[2.bb-	ff	IV
.	.	8G-X	.	.	.	.	.	.
4r	.	8B-	.	.	.	.	.	.
.	.	8e-	.	.	.	.	.	.
4r	.	8g-X	.	.	.	.	.	.
.	.	8b-J	.	.	.	.	.	.
=190	=190	=190	=190	=190	=190	=190	=190	=190
8GG-XL	.	4E-	.	4b-]	.	8bb-L]	.	.
8EE-	.	.	.	.	.	8aa-'	.	.
8GG-	.	4r	.	4B-	.	8gg-X'	.	.
8BB-	.	.	.	.	.	8ff'	.	.
8E-	.	8E-L	.	[4g-X	.	8ee-'	.	.
8G-XJ	.	8E-J	.	.	.	8dd-X'J	.	.
=191	=191	=191	=191	=191	=191	=191	=191	=191
4AA-	.	8E-L	.	8g-]	.	8cc'L	.	V7
.	.	8E-	.	8cL	.	8b-'	.	.
4r	.	8E-	.	8c	.	8a-'	.	.
.	.	8E-	.	8c	.	8g-X'	.	.
4r	.	8E-	.	8c	.	8f'	.	.
.	.	8E-J	.	8cJ	.	8e-'J	.	.
=192	=192	=192	=192	=192	=192	=192	=192	=192
4AA-	.	8G-XL	.	8e-L	.	8d-XL	.	.
.	.	8G-	.	8e-	.	8c	.	.
4r	.	8G-	.	8e-	.	8e-	.	.
.	.	8G-	.	8e-	.	8c	.	.
4r	.	8G-	.	8e-	.	8A-	.	.
.	.	8G-J	.	8e-J	.	8cJ	.	.
=193	=193	=193	=193	=193	=193	=193	=193	=193
4.D-X	.	4.A-	.	4.f	.	4d-X	.	I
.	.	.	.	.	.	4r	.	.
8d-XL	f	8fL	f	8a-L	f	.	.	.
8d-	.	8f	.	8a-	.	4r	.	.
8d-J	.	8fJ	.	8a-J	.	.	.	.
=194	=194	=194	=194	=194	=194	=194	=194	=194
4.d-X	.	4.f	.	4.a-	.	4r	.	.
.	.	.	.	.	.	8r	.	.
8D-XL	.	8FL	.	8A-L	.	8a-L	f	.
8D-	.	8F	.	8A-	.	8a-	.	.
8D-J	.	8FJ	.	8A-J	.	8a-J	.	.
=195	=195	=195	=195	=195	=195	=195	=195	=195
4D-X	.	8FL	.	4A-	.	8fL	.	.
.	.	8F 8A-	.	.	.	8d-X	.	.
4r	.	8F 8A-	.	4r	.	8f	.	.
.	.	8F 8A-	.	.	.	8a-	.	.
4r	.	8F 8A-	.	4r	.	8dd-X	.	.
.	.	8FJ 8A-	.	.	.	8ffJ	.	.
=196	=196	=196	=196	=196	=196	=196	=196	=196
4D-X	.	8FL 8A-	.	8fL	.	4aa-	.	I
.	.	8F 8A-	.	8d-X	.	.	.	.
4r	.	8F 8A-	.	8f	.	4r	.	.
.	.	8F 8A-	.	8a-	.	.	.	.
4r	.	8F 8A-	.	8dd-X	.	4ff	.	.
.	.	8FJ 8A-	.	8ffJ	.	.	.	.
=197	=197	=197	=197	=197	=197	=197	=197	=197
4BB-	ff ff	8FL 8Gn	.	[2.dd-X	ff	[2.ddd-X	ff	iv.#vii%
.	.	8G	.	.	.	.	.	.
4r	.	8B-	.	.	.	.	.	.
.	.	8d-X	.	.	.	.	.	.
4r	.	8gn	.	.	.	.	.	.
.	.	8b-J	.	.	.	.	.	.
=198	=198	=198	=198	=198	=198	=198	=198	=198
8BB-L	.	4B-	.	4dd-]	.	8ddd-L]	.	#viio7
8GGn	.	.	.	.	.	8ccc'	.	.
8BB-	.	4r	.	4d-X	.	8bb-'	.	.
8D-X	.	.	.	.	.	8aa-'	.	.
8Gn	.	8GL	.	[4b-	.	8ggn'	.	.
8B-J	.	8GJ	.	.	.	8ff'J	.	.
=199	=199	=199	=199	=199	=199	=199	=199	=199
4C	.	8GL	.	8b-L]	.	8een'L	.	V7
.	.	8G	.	8B-	.	8dd-X'	.	.
4r	.	8G	.	8B-	.	8cc'	.	.
.	.	8G	.	8B-	.	8b-'	.	.
4r	.	8G	.	8B-	.	8a-'	.	.
.	.	8GJ	.	8B-J	.	8gn'J	.	.
=200	=200	=200	=200	=200	=200	=200	=200	=200
4C	.	8GL	.	8B-L	.	8fL	.	.
.	.	8G	.	8B-	.	8en	.	.
4r	.	8G	.	8B-	.	8g	.	.
.	.	8G	.	8B-	.	8e	.	.
4r	.	8G	.	8B-	.	8c	.	.
.	.	8GJ	.	8B-J	.	8eJ	.	.
=201	=201	=201	=201	=201	=201	=201	=201	=201
4FF	.	8FL	.	8A-L	.	4.f	.	i
.	.	8G	.	8B-	.	.	.	.
4r	.	8A-	.	8c	.	.	.	.
.	.	8B-	.	8d-X	.	8ffL	.	.
4r	.	8A-	.	8c	.	8ff	.	.
.	.	8GJ	.	8B-J	.	8ffJ	.	.
=202	=202	=202	=202	=202	=202	=202	=202	=202
4FF	.	8FL	.	8A-L	.	4.f	.	.
.	.	8G	.	8B-	.	.	.	.
4r	.	8A-	.	8c	.	.	.	.
.	.	8B-	.	8d-X	.	8aa-L	.	.
4r	.	8A-	.	8c	.	8aa-	.	.
.	.	8GJ	.	8B-J	.	8aa-J	.	.
=203	=203	=203	=203	=203	=203	=203	=203	=203
4FF	.	8FL	.	8A-L	.	4ff	.	i\\
.	.	8G	.	8B-	.	.	.	.
4FF	.	8F	.	8A-	.	4fff	.	.
.	.	8G	.	8B-	.	.	.	.
4FF	.	8A-	.	8c	.	4ff	.	.
.	.	8FJ	.	8A-J	.	.	.	.
=204	=204	=204	=204	=204	=204	=204	=204	=204
2.r	.	4r	.	4ddn	p	4r	.	#viio7/V
.	.	4r	.	4dn	.	4fff	p	.
.	.	4bn	p	4r	.	4ff	.	.
=205	=205	=205	=205	=205	=205	=205	=205	=205
4r	.	4Bn	.	2.r	.	4r	.	#viio7/V
4dn	p	4r	.	.	.	4fff	.	.
4Dn	.	4r	.	.	.	4ff	.	.
=206	=206	=206	=206	=206	=206	=206	=206	=206
4Bn	f	4r	.	4r	.	4r	.	V7/V
4GG	.	4G	.	4f	.	4ddd	.	.
8AAnL	.	4G	.	4f	.	4dd	.	.
8BBnJ	.	.	.	.	.	.	.	.
=207	=207	=207	=207	=207	=207	=207	=207	=207
4CC 4C	f	8CL	.	8e-L	f	4.c	f	i.i
.	.	8D	.	8f	.	.	.	.
4r	.	8E-	.	8g	.	.	.	.
.	.	8F	.	8a-	.	8ee-L	.	.
4r	.	8E-	.	8g	.	8ee-	.	.
.	.	8DJ	.	8fJ	.	8ee-J	.	.
=208	=208	=208	=208	=208	=208	=208	=208	=208
4CC 4C	.	8CL	.	8e-L	.	4.c	.	.
.	.	8D	.	8f	.	.	.	.
4r	.	8E-	.	8g	.	.	.	.
.	.	8F	.	8a-	.	8ggL	.	.
4r	.	8E-	.	8g	.	8gg	.	.
.	.	8DJ	.	8fJ	.	8ggJ	.	.
=209	=209	=209	=209	=209	=209	=209	=209	=209
4CC 4C	.	8CL	.	8e-L	.	4cc	.	.
.	.	8D	.	8f	.	.	.	.
4CC 4C	.	8C	.	8e-	.	4eee-	.	.
.	.	8D	.	8f	.	.	.	.
4CC 4C	.	8E-	.	8g	.	4cc	.	.
.	.	8CJ	.	8e-J	.	.	.	.
=210	=210	=210	=210	=210	=210	=210	=210	=210
2.r	.	4r	.	4an	p	4r	.	#viio7/V
.	.	4r	.	4An	.	4ccc	p	.
.	.	4f#X	p	4r	.	4cc	.	.
=211	=211	=211	=211	=211	=211	=211	=211	=211
4r	.	4F#X	.	2.r	.	4r	.	#viio7/V
4An	p	4r	.	.	.	4ccc	.	.
4AAn	.	4r	.	.	.	4cc	.	.
=212	=212	=212	=212	=212	=212	=212	=212	=212
4F#X	.	4r	.	4r	.	4r	.	V7/V
4DD	.	4d	.	4c	.	4aan	.	.
8EEnL	.	4d	.	4c	.	4an	.	.
8FF#XJ	.	.	.	.	.	.	.	.
=213	=213	=213	=213	=213	=213	=213	=213	=213
4GG'	.	4d	.	4B- 4g	.	[2.gg	.	v[v
4B-'	.	4r	.	8r	.	.	.	.
.	.	.	.	8gL	.	.	.	.
4GG'	.	4r	.	8g	.	.	.	.
.	.	.	.	8gJ	.	.	.	.
=214	=214	=214	=214	=214	=214	=214	=214	=214
4GG	.	2.r	.	4g	.	2gg]	.	V7
4Bn	.	.	.	8r	.	.	.	.
.	.	.	.	8gL	.	.	.	.
4GG	.	.	.	8g	.	4ff	.	.
.	.	.	.	8gJ	.	.	.	.
=215	=215	=215	=215	=215	=215	=215	=215	=215
4GG	.	2.r	.	4g	.	(8ffL	.	i
.	.	.	.	.	.	8ee-J)	.	.
4c	.	.	.	8r	.	4r	.	.
.	.	.	.	8gL	.	.	.	.
4GG	.	.	.	8g	.	4dd	.	.
.	.	.	.	8gJ	.	.	.	.
=216	=216	=216	=216	=216	=216	=216	=216	=216
4GG	.	2.r	.	4g	.	(8ffL	.	V7
.	.	.	.	.	.	8ee-J)	.	.
4Bn	.	.	.	8r	.	4r	.	.
.	.	.	.	8gL	.	.	.	.
4GG	.	.	.	8g	.	4dd	.	.
.	.	.	.	8gJ	.	.	.	.
=217	=217	=217	=217	=217	=217	=217	=217	=217
4GG	.	2.r	.	4g	.	(8ffL	.	i
.	.	.	.	.	.	8ee-J)	.	.
4c	.	.	.	8r	.	4r	.	.
.	.	.	.	8gL	.	.	.	.
4GG	.	.	.	8g	.	4dd	.	.
.	.	.	.	8gJ	.	.	.	.
=218	=218	=218	=218	=218	=218	=218	=218	=218
4GG	.	2.r	.	4g	.	4ee-	.	V/V
4An	.	.	.	8r	.	4r	.	.
.	.	.	.	8gL	.	.	.	.
4GG	.	.	.	8g	.	4ff#X	.	.
.	.	.	.	8gJ	.	.	.	.
=219	=219	=219	=219	=219	=219	=219	=219	=219
!LO:TX:a:i:t=cresc.	!	!	!	!LO:TX:a:i:t=cresc.	!	!LO:TX:a:i:t=cresc.	!	!
4GG	.	2.r	.	[2.g	.	[2.gg	.	V
4G	.	.	.	.	.	.	.	.
4GG	.	.	.	.	.	.	.	.
=220	=220	=220	=220	=220	=220	=220	=220	=220
4GG	.	4r	.	2g]	.	2gg]	.	V]
!	!	!LO:TX:a:i:t=cresc.	!	!	!	!	!	!
(8GGL	.	(4Bn	.	.	.	.	.	.
8FF	.	.	.	.	.	.	.	.
8EE-	.	8cL	.	(8anL	.	(8aanL	.	.
8DDJ)	.	8dJ)	.	8bnJ)	.	8bbnJ)	.	.
=221	=221	=221	=221	=221	=221	=221	=221	=221
4CC	.	4C	.	[2.cc	.	[2.ccc	.	i[i
8r	.	4e-	.	.	.	.	.	.
8cL	.	.	.	.	.	.	.	.
8c	.	4C	.	.	.	.	.	.
8cJ	.	.	.	.	.	.	.	.
=222	=222	=222	=222	=222	=222	=222	=222	=222
4c	.	4C	.	(2cc]	.	(2ccc]	.	V7/iv
8r	.	4en	.	.	.	.	.	.
8cL	.	.	.	.	.	.	.	.
8c	.	4C	.	4b-X)	.	4bb-X)	.	.
8cJ	.	.	.	.	.	.	.	.
=223	=223	=223	=223	=223	=223	=223	=223	=223
4c	.	4C	.	(8b-L	.	(8bb-L	.	iv
.	.	.	.	8a-XJ)	.	8aa-XJ)	.	.
8r	.	4f	.	4r	.	4r	.	.
8cL	.	.	.	.	.	.	.	.
8c	.	4C	.	4g	.	4gg	.	.
8cJ	.	.	.	.	.	.	.	.
=224	=224	=224	=224	=224	=224	=224	=224	=224
4c	.	4C	.	(8b-L	.	(8bb-L	.	V7/iv
.	.	.	.	8a-J)	.	8aa-J)	.	.
8r	.	4en	.	4r	.	4r	.	.
8cL	.	.	.	.	.	.	.	.
8c	.	4C	.	4g	.	4gg	.	.
8cJ	.	.	.	.	.	.	.	.
=225	=225	=225	=225	=225	=225	=225	=225	=225
4c	.	4C	.	(8b-L	.	(8bb-L	.	iv
.	.	.	.	8a-J)	.	8aa-J)	.	.
8r	.	4f	.	4r	.	4r	.	.
8cL	.	.	.	.	.	.	.	.
8c	.	4C	.	4g	.	4gg	.	.
8cJ	.	.	.	.	.	.	.	.
=226	=226	=226	=226	=226	=226	=226	=226	=226
4c	.	4C	.	4a-	.	4aa-	.	.
8r	.	4d	.	4r	.	4r	.	.
8cL	.	.	.	.	.	.	.	.
8c	.	4C	.	4bn	.	4bbn	.	V
8cJ	.	.	.	.	.	.	.	.
=227	=227	=227	=227	=227	=227	=227	=227	=227
!LO:TX:a:i:t=dim.	!	!LO:TX:a:i:t=dim.	!	!LO:TX:a:i:t=dim.	!	!LO:TX:a:i:t=dim.	!	!
8cL	.	8e-XL	.	4.cc	.	4.ccc	.	i6
8cJ	.	8e-J	.	.	.	.	.	.
2e-	.	2g	.	.	.	.	.	.
.	.	.	.	8ccL	.	8cccL	.	.
.	.	.	.	8cc	.	8ccc	.	.
.	.	.	.	8ccJ	.	8bb-XJ	.	.
=228	=228	=228	=228	=228	=228	=228	=228	=228
8fL	.	8a-L	.	4cc	.	4.aa-	.	V65/III
8fJ	.	8a-J	.	.	.	.	.	.
2d	.	2f	.	8b-XL	.	.	.	.
.	.	.	.	8b-	.	8bb-L	.	.
.	.	.	.	8b-	.	8bb-	.	.
.	.	.	.	8b-J	.	8aa-J	.	.
=229	=229	=229	=229	=229	=229	=229	=229	=229
8e-L	.	8gL	.	4b-	.	4.gg	.	VI6
8e-J	.	8gJ	.	.	.	.	.	.
2c	.	2e-	.	8a-L	.	.	.	.
.	.	.	.	8a-	.	8aa-L	.	.
.	.	.	.	8a-	.	8aa-	.	.
.	.	.	.	8a-J	.	8ggJ	.	.
=230	=230	=230	=230	=230	=230	=230	=230	=230
8dL	.	8fL	.	4a-	.	4.ff	.	V65
8dJ	.	8fJ	.	.	.	.	.	.
2Bn	.	2d	.	8gL	.	.	.	.
.	.	.	.	8g	.	8ggL	.	.
.	.	.	.	8g	.	8gg	.	.
.	.	.	.	8gJ	.	8ffJ	.	.
=231	=231	=231	=231	=231	=231	=231	=231	=231
8cL	p	8e-L	p	4g	p	4.ee-	p	i6
8CJ	.	8E-J	.	.	.	.	.	.
2E-	.	2G	.	8cL	.	.	.	.
.	.	.	.	8c	.	8ccL	.	.
.	.	.	.	8c	.	8cc	.	.
.	.	.	.	8cJ	.	8b-J	.	.
=232	=232	=232	=232	=232	=232	=232	=232	=232
!	!	!LO:TX:a:i:t=piu p	!	!	!	!	!	!
!LO:TX:a:i:t=piu p	!	!LO:TX:a:i:t=piu p	!	!	!	!LO:TX:a:i:t=piu p	!	!
8FL	.	8A-L	.	4c	.	4.a-	.	V65/III
8FJ	.	8A-J	.	.	.	.	.	.
2D	.	2F	.	8B-XL	.	.	.	.
.	.	.	.	8B-	.	8b-L	.	.
.	.	.	.	8B-	.	8b-	.	.
.	.	.	.	8B-J	.	8a-J	.	.
=233	=233	=233	=233	=233	=233	=233	=233	=233
8E-L	.	8GL	.	4B-	.	4.g	.	VI6
8E-J	.	8GJ	.	.	.	.	.	.
2C	.	2E-	.	8A-L	.	.	.	.
.	.	.	.	8A-	.	8a-L	.	.
.	.	.	.	8A-	.	8a-	.	.
.	.	.	.	8A-J	.	8gJ	.	.
=234	=234	=234	=234	=234	=234	=234	=234	=234
8DL	.	8FL	.	4A-	.	4.f	.	V65
8DJ	.	8FJ	.	.	.	.	.	.
2BBn	.	2D	.	8GL	.	.	.	.
.	.	.	.	8G	.	8gL	.	.
.	.	.	.	8G	.	8g	.	.
.	.	.	.	8GJ	.	8fJ	.	.
=235	=235	=235	=235	=235	=235	=235	=235	=235
8CL	.	8E-L	.	4G	.	4.e-	.	IV6
8CJ	.	8E-J	.	.	.	.	.	.
2AA-	.	2C	.	8cL	.	.	.	.
.	.	.	.	8c	.	8fL	.	.
.	.	.	.	8c	.	8e-	.	.
.	.	.	.	8cJ	.	8fJ	.	.
=236	=236	=236	=236	=236	=236	=236	=236	=236
8GGL	.	8DL	.	4c	.	4.g	.	V7
8GGJ	.	8DJ	.	.	.	.	.	.
2GG	.	2D	.	8BnL	.	.	.	.
.	.	.	.	8B	.	8gL	.	.
.	.	.	.	8B	.	8g	.	.
.	.	.	.	8BJ	.	8fJ	.	.
=237	=237	=237	=237	=237	=237	=237	=237	=237
8CL	.	8E-L	.	4G	.	4.e-	.	IV6
8CJ	.	8E-J	.	.	.	.	.	.
2AA-	.	2C	.	8cL	.	.	.	.
.	.	.	.	8c	.	8fL	.	.
.	.	.	.	8c	.	8e-	.	.
.	.	.	.	8cJ	.	8fJ	.	.
=238	=238	=238	=238	=238	=238	=238	=238	=238
8GGL	.	8DL	.	4c	.	4.g	.	V
8GGJ	.	8DJ	.	.	.	.	.	.
2GG	.	2D	.	8BnL	.	.	.	.
.	.	.	.	8B	.	8gL	.	.
.	.	.	.	8B	.	8g	.	.
.	.	.	.	8BJ	.	8gJ	.	.
=239	=239	=239	=239	=239	=239	=239	=239	=239
8GGL	pp pp	4D	pp	4Bn	.	4g	pp	V
8GG	.	.	.	.	.	.	.	.
8AA-	.	4r	.	4r	.	4r	.	.
8AA-	.	.	.	.	.	.	.	.
8GG	.	4r	.	4r	.	4r	.	.
8GGJ	.	.	.	.	.	.	.	.
=240	=240	=240	=240	=240	=240	=240	=240	=240
8FFL	.	2.r	.	4c	.	4a-	.	iv
8FF	.	.	.	.	.	.	.	.
8GG	.	.	.	4r	.	4r	.	.
8GG	.	.	.	.	.	.	.	.
8FF	.	.	.	4r	.	4r	.	.
8FFJ	.	.	.	.	.	.	.	.
=241	=241	=241	=241	=241	=241	=241	=241	=241
8EE-L	.	4G	.	4c	.	4an	.	ii%65/v
8EE-	.	.	.	.	.	.	.	.
8FF	.	4r	.	4r	.	4r	.	.
8FF	.	.	.	.	.	.	.	.
8EE-	.	4r	.	4r	.	4r	.	.
8EE-J	.	.	.	.	.	.	.	.
=242	=242	=242	=242	=242	=242	=242	=242	=242
8DDL	.	4G	.	4d	.	4bn	.	V
8DD	.	.	.	.	.	.	.	.
8EE-	.	4r	.	4r	.	4r	.	.
8EE-	.	.	.	.	.	.	.	.
8DD	.	4r	.	4r	.	4r	.	.
8DDJ	.	.	.	.	.	.	.	.
=243	=243	=243	=243	=243	=243	=243	=243	=243
!	!	!LO:TX:a:i:t=sempre pp	!	!	!	!	!	!
!	!	!LO:TX:a:i:t=sempre pp	!	!	!	!LO:TX:a:i:t=sempre pp	!	!
8CCL	.	4G	.	4e-	.	4cc	.	i
8GG	.	.	.	.	.	.	.	.
8GG	.	4r	.	4r	.	4r	.	.
8GG	.	.	.	.	.	.	.	.
8GG	.	8GL	.	8dL	.	8bnL	.	V
8GGJ	.	8GJ	.	8dJ	.	8bJ	.	.
=244	=244	=244	=244	=244	=244	=244	=244	=244
8CCL	.	4G	.	4e-	.	4cc	.	i
8GG	.	.	.	.	.	.	.	.
8GG	.	4r	.	4r	.	4r	.	.
8GG	.	.	.	.	.	.	.	.
8GG	.	8GL	.	8dL	.	8bnL	.	V
8GGJ	.	8GJ	.	8dJ	.	8bJ	.	.
=245	=245	=245	=245	=245	=245	=245	=245	=245
8CCL	.	4G	.	4e-	.	4cc	.	i
8GG	.	.	.	.	.	.	.	.
8GG	.	4r	.	4r	.	4r	.	.
8GG	.	.	.	.	.	.	.	.
8GG	.	8GL	.	8dL	.	8bnL	.	V
8GGJ	.	8GJ	.	8dJ	.	8bJ	.	.
=246	=246	=246	=246	=246	=246	=246	=246	=246
8CCL	.	4G	.	4e-	.	4cc	.	i
8GG	.	.	.	.	.	.	.	.
8GG	.	4r	.	4r	.	4r	.	.
8GG	.	.	.	.	.	.	.	.
8GG	.	8GL	.	8dL	.	8bnL	.	V
8GGJ	.	8GJ	.	8dJ	.	8bJ	.	.
=247||	=247||	=247||	=247||	=247||	=247||	=247||	=247||	=247||
*k[]	*	*k[]	*	*k[]	*	*k[]	*	*
*C:	*	*C:	*	*C:	*	*C:	*	*
4CC	f f	4C 4G	f	4c 4e	.	4G 4en 4cc	f	I.I
!	!	!	!	!	!	!LO:TX:a:i:t=Più presto quasi prestissimo	!	!
4r	.	4r	.	4r	.	4r	.	.
4r	.	4r	.	4r	.	4r	.	.
=248	=248	=248	=248	=248	=248	=248	=248	=248
4c	ff	2.r	.	2.r	.	2.r	.	I
4d	.	.	.	.	.	.	.	.
4e	.	.	.	.	.	.	.	.
=249	=249	=249	=249	=249	=249	=249	=249	=249
4d	.	2.r	.	2.r	.	2.r	.	.
4c	.	.	.	.	.	.	.	.
4B	.	.	.	.	.	.	.	.
=250	=250	=250	=250	=250	=250	=250	=250	=250
4A	.	2.r	.	2.r	.	2.r	.	.
4G	.	.	.	.	.	.	.	.
4F	.	.	.	.	.	.	.	.
=251	=251	=251	=251	=251	=251	=251	=251	=251
4E	.	2.r	.	2.r	.	2.r	.	.
4F	.	.	.	.	.	.	.	.
4G	.	.	.	.	.	.	.	.
=252	=252	=252	=252	=252	=252	=252	=252	=252
4A	.	2.r	.	2.r	.	2.r	.	.
4B	.	.	.	.	.	.	.	.
4c	.	.	.	.	.	.	.	.
=253	=253	=253	=253	=253	=253	=253	=253	=253
4B	.	2.r	.	2.r	.	2.r	.	.
4A	.	.	.	.	.	.	.	.
4G	.	.	.	.	.	.	.	.
=254	=254	=254	=254	=254	=254	=254	=254	=254
4F	.	2.r	.	2.r	.	2.r	.	.
4E	.	.	.	.	.	.	.	.
4D	.	.	.	.	.	.	.	.
=255	=255	=255	=255	=255	=255	=255	=255	=255
4C	.	2.r	.	2.r	.	2.r	.	I
4D	.	.	.	.	.	.	.	.
4E	.	.	.	.	.	.	.	.
=256	=256	=256	=256	=256	=256	=256	=256	=256
4F	.	[2.c	f	2.r	.	2.r	.	IV
4G	.	.	.	.	.	.	.	.
4A	.	.	.	.	.	.	.	.
=257	=257	=257	=257	=257	=257	=257	=257	=257
4G	.	2.c]	.	2.r	.	2.r	.	.
4F	.	.	.	.	.	.	.	.
4E	.	.	.	.	.	.	.	.
=258	=258	=258	=258	=258	=258	=258	=258	=258
4D	.	2.d'	.	2.r	.	2.r	.	ii
4C	.	.	.	.	.	.	.	.
4BB	.	.	.	.	.	.	.	.
=259	=259	=259	=259	=259	=259	=259	=259	=259
4AA	.	2.e'	.	2.r	.	2.r	.	V.ii
4BB	.	.	.	.	.	.	.	.
4C	.	.	.	.	.	.	.	.
=260	=260	=260	=260	=260	=260	=260	=260	=260
4D	.	2.d'	.	2.r	.	2.r	.	V
4E	.	.	.	.	.	.	.	.
4F#X	.	.	.	.	.	.	.	.
=261	=261	=261	=261	=261	=261	=261	=261	=261
4G	.	2.B'	.	2.r	.	2.r	.	I
4F#X	.	.	.	.	.	.	.	.
4E	.	.	.	.	.	.	.	.
=262	=262	=262	=262	=262	=262	=262	=262	=262
4D	.	2.d'	.	2.r	.	2.r	.	V
4C	.	.	.	.	.	.	.	.
4BB	.	.	.	.	.	.	.	.
=263	=263	=263	=263	=263	=263	=263	=263	=263
4AA	.	2.e'	.	2.r	.	2.r	.	ii
4BB	.	.	.	.	.	.	.	.
4C	.	.	.	.	.	.	.	.
=264	=264	=264	=264	=264	=264	=264	=264	=264
4D	.	2.d'	.	2.r	.	2.r	.	V
4E	.	.	.	.	.	.	.	.
4F#X	.	.	.	.	.	.	.	.
=265	=265	=265	=265	=265	=265	=265	=265	=265
4G	.	4B	.	2.r	.	2.r	.	I
4r	.	4r	.	.	.	.	.	.
4r	.	4r	.	.	.	.	.	.
=266	=266	=266	=266	=266	=266	=266	=266	=266
2.r	.	2.r	.	[2.c	ff	4ccc	ff	I.I
.	.	.	.	.	.	4ddd	.	.
.	.	.	.	.	.	4eee	.	.
=267	=267	=267	=267	=267	=267	=267	=267	=267
2.r	.	[2.d	ff	2.c]	.	4ddd	.	ii2
.	.	.	.	.	.	4ccc	.	.
.	.	.	.	.	.	4bb	.	.
=268	=268	=268	=268	=268	=268	=268	=268	=268
2.r	.	2.d_	.	2.B'	.	4aa	.	V65
.	.	.	.	.	.	4gg	.	.
.	.	.	.	.	.	4ff	.	.
=269	=269	=269	=269	=269	=269	=269	=269	=269
2.r	.	2.d]	.	[2.e	.	4ee	.	iii2
.	.	.	.	.	.	4ff	.	.
.	.	.	.	.	.	4gg	.	.
=270	=270	=270	=270	=270	=270	=270	=270	=270
2.r	.	2.c	.	2.e_	.	4aa	.	vi6
.	.	.	.	.	.	4bb	.	.
.	.	.	.	.	.	4ccc	.	.
=271	=271	=271	=271	=271	=271	=271	=271	=271
2.r	.	[2.f	.	2.e]	.	4bb	.	IV2
.	.	.	.	.	.	4aa	.	.
.	.	.	.	.	.	4gg	.	.
=272	=272	=272	=272	=272	=272	=272	=272	=272
2.r	.	2.f_	.	2.d'	.	4ff	.	ii
.	.	.	.	.	.	4ee	.	.
.	.	.	.	.	.	4dd	.	.
=273	=273	=273	=273	=273	=273	=273	=273	=273
2.r	.	2f]	.	2.g'	.	4cc	.	V(4)
.	.	.	.	.	.	4dd	.	V
.	.	4e	.	.	.	4ee	.	I6
=274	=274	=274	=274	=274	=274	=274	=274	=274
[2.AA	ff	[2.c	.	[2.cc	.	4ff	.	IV6
.	.	.	.	.	.	4gg	.	.
.	.	.	.	.	.	4aa	.	.
=275	=275	=275	=275	=275	=275	=275	=275	=275
2.AA]	.	2.c]	.	2.cc]	.	4ff#X	.	#viio6/V
.	.	.	.	.	.	4gg	.	.
.	.	.	.	.	.	4aa	.	.
=276	=276	=276	=276	=276	=276	=276	=276	=276
2.GG'	.	2.B'	.	2.dd'	.	4bb	.	V.I
.	.	.	.	.	.	4ccc	.	.
.	.	.	.	.	.	4ddd	.	.
=277	=277	=277	=277	=277	=277	=277	=277	=277
2.CC'	.	2.C' 2.c	.	2.ee'	.	4aa	.	ii6
.	.	.	.	.	.	4eee	.	.
.	.	.	.	.	.	4eee	.	.
=278	=278	=278	=278	=278	=278	=278	=278	=278
2.DD'	.	2.D' 2.c	.	2.dd'	.	4ddd	.	V
.	.	.	.	.	.	4eee	.	.
.	.	.	.	.	.	4fff#X	.	.
=279	=279	=279	=279	=279	=279	=279	=279	=279
2.GG'	.	2.D' 2.B	.	2.b'	.	4ggg	.	I
.	.	.	.	.	.	4fff#X	.	.
.	.	.	.	.	.	4eee	.	.
=280	=280	=280	=280	=280	=280	=280	=280	=280
2.G'	.	2.D' 2.B	.	2.dd'	.	4ddd	.	.
.	.	.	.	.	.	4ccc	.	.
.	.	.	.	.	.	4bb	.	.
=281	=281	=281	=281	=281	=281	=281	=281	=281
2.C'	.	2.D' 2.c	.	2.ee'	.	4aa	.	ii6
.	.	.	.	.	.	4eee	.	.
.	.	.	.	.	.	4eee	.	.
=282	=282	=282	=282	=282	=282	=282	=282	=282
2.D'	.	2.D' 2.c	.	2.d' 2.dd	.	4ddd	.	V
.	.	.	.	.	.	4eee	.	.
.	.	.	.	.	.	4fff#X	.	.
=283	=283	=283	=283	=283	=283	=283	=283	=283
4GG	.	4D 4B	.	4d 4b	.	4ggg	.	I\\
4r	.	4r	.	4r	.	4r	.	.
4r	.	4r	.	4r	.	4r	.	.
=284	=284	=284	=284	=284	=284	=284	=284	=284
!	!	!	!	!	!	!LO:TX:a:i:t=sempre ff	!	!
[2.GG	.	[2.G	.	2.r	.	4gg	.	v.i
.	.	.	.	.	.	4aa	.	.
.	.	.	.	.	.	4bb-X	.	.
=285	=285	=285	=285	=285	=285	=285	=285	=285
2.GG]	.	2.G]	.	2.r	.	4aa	.	.
.	.	.	.	.	.	4gg	.	.
.	.	.	.	.	.	4ffn	.	.
=286	=286	=286	=286	=286	=286	=286	=286	=286
2.AA'	.	2.A'	.	2.r	.	4ee	.	iio
.	.	.	.	.	.	4dd	.	.
.	.	.	.	.	.	4cc	.	.
=287	=287	=287	=287	=287	=287	=287	=287	=287
2.BB-X'	.	2.B-X'	.	2.r	.	4b-X	.	III
.	.	.	.	.	.	4a	.	.
.	.	.	.	.	.	4g	.	.
=288	=288	=288	=288	=288	=288	=288	=288	=288
2.C#X'	.	2.c#X'	.	2.r	.	4fn	.	V6/V
.	.	.	.	.	.	4e	.	.
.	.	.	.	.	.	4d	.	.
=289	=289	=289	=289	=289	=289	=289	=289	=289
2.E'	.	2.e'	.	2.r	.	4c#X	.	V43/V
.	.	.	.	.	.	4B-X	.	.
.	.	.	.	.	.	4A	.	.
=290	=290	=290	=290	=290	=290	=290	=290	=290
4G	.	4g	.	2.G'	.	2.G' 2.g	.	iv/V
4F	.	4f	.	.	.	.	.	.
4E	.	4e	.	.	.	.	.	.
=291	=291	=291	=291	=291	=291	=291	=291	=291
4D	.	4d	.	2.c#X'	.	2.cc#X'	.	V6/V
4C#X	.	4c#X	.	.	.	.	.	.
4BB-X	.	4B-X	.	.	.	.	.	.
=292	=292	=292	=292	=292	=292	=292	=292	=292
4AA	.	4A	.	2.e'	.	2.ee'	.	V/V
4GG	.	4G	.	.	.	.	.	.
4FF	.	4F	.	.	.	.	.	.
=293	=293	=293	=293	=293	=293	=293	=293	=293
4EE	.	4E	.	2.ee' 2.gg	.	2.cc#X' 2.aa	.	V43/V
4DD	.	4D	.	.	.	.	.	.
4CC#X	.	4C#X	.	.	.	.	.	.
=294	=294	=294	=294	=294	=294	=294	=294	=294
4EE	.	4E	.	2.ee' 2.gg	.	2.cc#X' 2.aa	.	V43/V
4AA	.	4A	.	.	.	.	.	.
4C#X	.	4c#X	.	.	.	.	.	.
=295	=295	=295	=295	=295	=295	=295	=295	=295
4E	.	4e	.	4g	.	4cc#X' 4aa	.	V43/V
4r	.	4r	.	4r	.	4r	.	.
4r	.	4r	.	4r	.	4r	.	.
=296	=296	=296	=296	=296	=296	=296	=296	=296
!LO:TX:a:i:t=sempre f	!	!	!	!	!	!LO:TX:a:i:t=sempre f	!	!
[2.DD	.	[2.D	.	2.r	.	4ff	.	ii.i
.	.	.	.	.	.	4gg	.	.
.	.	.	.	.	.	4aa	.	.
=297	=297	=297	=297	=297	=297	=297	=297	=297
2.DD]	.	2.D]	.	2.r	.	4gg	.	.
.	.	.	.	.	.	4ff	.	.
.	.	.	.	.	.	4ee	.	.
=298	=298	=298	=298	=298	=298	=298	=298	=298
2.EE'	.	2.E'	.	2.r	.	4dd	.	ii7
.	.	.	.	.	.	4ccn	.	.
.	.	.	.	.	.	4b	.	.
=299	=299	=299	=299	=299	=299	=299	=299	=299
2.FF'	.	2.F'	.	2.r	.	4a	.	III
.	.	.	.	.	.	4g	.	.
.	.	.	.	.	.	4f	.	.
=300	=300	=300	=300	=300	=300	=300	=300	=300
2.BBn'	.	2.Bn'	.	2.r	.	4e	.	I.V6
.	.	.	.	.	.	4d	.	.
.	.	.	.	.	.	4cn	.	.
=301	=301	=301	=301	=301	=301	=301	=301	=301
2.D'	.	2.d'	.	2.r	.	4Bn	.	V64
.	.	.	.	.	.	4A	.	.
.	.	.	.	.	.	4G	.	.
=302	=302	=302	=302	=302	=302	=302	=302	=302
4F	.	4f	.	2.f'	.	2.ff'	.	V2
4E	.	4e	.	.	.	.	.	.
4D	.	4d	.	.	.	.	.	.
=303	=303	=303	=303	=303	=303	=303	=303	=303
4Cn	.	4cn	.	2.b'	.	2.bb'	.	.
4BB	.	4B	.	.	.	.	.	.
4AA	.	4A	.	.	.	.	.	.
=304	=304	=304	=304	=304	=304	=304	=304	=304
4GG	.	4G	.	2.dd'	.	2.ddd'	.	V
4FF	.	4F	.	.	.	.	.	.
4EE	.	4E	.	.	.	.	.	.
=305	=305	=305	=305	=305	=305	=305	=305	=305
4DD	.	4D	.	2.dd' 2.ff	.	2.b' 2.gg	.	V43
4CC	.	4C	.	.	.	.	.	.
4BB	.	4D	.	.	.	.	.	.
=306	=306	=306	=306	=306	=306	=306	=306	=306
4D	.	4F	.	2.dd' 2.ff	.	2.b' 2.gg	.	.
4F	.	4B	.	.	.	.	.	.
4B	.	4d	.	.	.	.	.	.
=307	=307	=307	=307	=307	=307	=307	=307	=307
4d	.	4f	.	4dd 4ff	.	4b 4gg	.	.
4r	.	4r	.	4r	.	4r	.	.
4r	.	4r	.	4r	.	4r	.	.
=308	=308	=308	=308	=308	=308	=308	=308	=308
4c	.	4cc	.	2.r	.	[2.cc	.	I
4d	.	4dd	.	.	.	.	.	.
4e	.	4ee	.	.	.	.	.	.
=309	=309	=309	=309	=309	=309	=309	=309	=309
4d	.	4dd	.	[2.dd	.	2.cc]	.	ii7
4c	.	4cc	.	.	.	.	.	.
4B	.	4b	.	.	.	.	.	.
=310	=310	=310	=310	=310	=310	=310	=310	=310
4A	.	4a	.	2.dd_	.	2.b	.	V2
4G	.	4g	.	.	.	.	.	.
4F	.	4f	.	.	.	.	.	.
=311	=311	=311	=311	=311	=311	=311	=311	=311
4E	.	4e	.	2.dd]	.	[2.ee	.	iii7
4F	.	4f	.	.	.	.	.	.
4G	.	4g	.	.	.	.	.	.
=312	=312	=312	=312	=312	=312	=312	=312	=312
4A	.	4a	.	2.cc'	.	2.ee_	.	vi
4B	.	4b	.	.	.	.	.	.
4c	.	4cc	.	.	.	.	.	.
=313	=313	=313	=313	=313	=313	=313	=313	=313
4B	.	4b	.	[2.ff	.	2.ee]	.	V65(6)
4A	.	4a	.	.	.	.	.	.
4G	.	4g	.	.	.	.	.	.
=314	=314	=314	=314	=314	=314	=314	=314	=314
4F	.	4f	.	2.ff_	.	2.dd	.	ii6
4E	.	4e	.	.	.	.	.	.
4D	.	4d	.	.	.	.	.	.
=315	=315	=315	=315	=315	=315	=315	=315	=315
4C	.	4c	.	2.ff]	.	[2.gg	.	I(4)
4D	.	4d	.	.	.	.	.	.
4C	.	4c	.	.	.	.	.	.
=316	=316	=316	=316	=316	=316	=316	=316	=316
4BB-X	.	4B-X	.	2ee	.	2.gg]	.	V2/IV
4AA	.	4A	.	.	.	.	.	.
4GG	.	4G	.	4e	.	.	.	.
=317	=317	=317	=317	=317	=317	=317	=317	=317
4FF	.	4F	.	2.cc'	.	2.aa'	.	IV
4GG	.	4G	.	.	.	.	.	.
4FF	.	4F	.	.	.	.	.	.
=318	=318	=318	=318	=318	=318	=318	=318	=318
4EE	.	4E	.	2.dd'	.	2.bb'	.	V43
4DD	.	4D	.	.	.	.	.	.
4GG	.	4G	.	.	.	.	.	.
=319	=319	=319	=319	=319	=319	=319	=319	=319
4CC	.	4C	.	2.ee'	.	2.ccc'	.	I
4D	.	4d	.	.	.	.	.	.
4C	.	4c	.	.	.	.	.	.
=320	=320	=320	=320	=320	=320	=320	=320	=320
4BB-X	.	4B-X	.	2.ee' 2.gg	.	2.ccc'	.	V2/IV
4AA	.	4A	.	.	.	.	.	.
4GG	.	4G	.	.	.	.	.	.
=321	=321	=321	=321	=321	=321	=321	=321	=321
4FF	.	4F	.	2.aa'	.	2.ccc'	.	IV
4GG	.	4G	.	.	.	.	.	.
4FF	.	4F	.	.	.	.	.	.
=322	=322	=322	=322	=322	=322	=322	=322	=322
4EE	.	4E	.	2.bb'	.	2.ddd'	.	V43
4DD	.	4D	.	.	.	.	.	.
4GG	.	4G	.	.	.	.	.	.
=323	=323	=323	=323	=323	=323	=323	=323	=323
4CC	.	4C	.	4ccc	.	4eee	.	I\\
4r	.	4r	.	4cc	.	4ccc	.	.
4r	.	4r	.	4b	.	4bb	.	.
=324	=324	=324	=324	=324	=324	=324	=324	=324
[2.C	.	2.r	.	4cc	.	4ccc	.	.
.	.	.	.	4dd	.	4ddd	.	.
.	.	.	.	4ee	.	4eee	.	.
=325	=325	=325	=325	=325	=325	=325	=325	=325
2.C]	.	[2.D	.	4dd	.	4ddd	.	ii2
.	.	.	.	4cc	.	4ccc	.	.
.	.	.	.	4b	.	4bb	.	.
=326	=326	=326	=326	=326	=326	=326	=326	=326
2.BB'	.	2.D_	.	4a	.	4aa	.	V65
.	.	.	.	4g	.	4gg	.	.
.	.	.	.	4f	.	4ff	.	.
=327	=327	=327	=327	=327	=327	=327	=327	=327
[2.E	.	2.D]	.	4e	.	4ee	.	iii2
.	.	.	.	4f	.	4ff	.	.
.	.	.	.	4g	.	4gg	.	.
=328	=328	=328	=328	=328	=328	=328	=328	=328
2.E_	.	2.C'	.	4a	.	4aa	.	vi6
.	.	.	.	4b	.	4bb	.	.
.	.	.	.	4cc	.	4ccc	.	.
=329	=329	=329	=329	=329	=329	=329	=329	=329
2.E]	.	[2.F	.	4b	.	4bb	.	iii
.	.	.	.	4a	.	4aa	.	.
.	.	.	.	4g	.	4gg	.	.
=330	=330	=330	=330	=330	=330	=330	=330	=330
2.D'	.	2.F_	.	4f	.	4ff	.	V43
.	.	.	.	4e	.	4ee	.	.
.	.	.	.	4d	.	4dd	.	.
=331	=331	=331	=331	=331	=331	=331	=331	=331
[2.G	.	2F]	.	4c	.	4cc	.	V(64)
.	.	.	.	4d	.	4dd	.	.
.	.	4E	.	4e	.	4ee	.	.
=332	=332	=332	=332	=332	=332	=332	=332	=332
2G]	.	2.A	.	4f	.	4ff	.	IV(2)
.	.	.	.	4g	.	4gg	.	.
4F	.	.	.	4a	.	4aa	.	.
=333	=333	=333	=333	=333	=333	=333	=333	=333
2BB	sf	2B	sf	4g	.	4gg	.	V65
.	.	.	.	4f	.	4ff	.	.
4GG	.	4G	.	4e	.	4ee	.	.
=334	=334	=334	=334	=334	=334	=334	=334	=334
2D	sf	2d	sf	4d	.	4dd	.	V
.	.	.	.	4c	.	4cc	.	.
4BB	.	4B	.	4B	.	4b	.	.
=335	=335	=335	=335	=335	=335	=335	=335	=335
2.r	.	4r	.	2f	sf	[2.aa-X	sf	#viio7
.	.	4r	.	.	.	.	.	.
.	.	4r	.	4d	.	.	.	.
=336	=336	=336	=336	=336	=336	=336	=336	=336
2.r	.	2f	sf	2b	.	2.aa-_	.	#viio7
.	.	4d	.	4f	.	.	.	.
=337	=337	=337	=337	=337	=337	=337	=337	=337
2.r	.	2b	.	2dd	.	2.aa-_	.	#viio7
.	.	4f	.	4b	.	.	.	.
=	=	=	=	=	=	=	=	=
4.r	.	[4.dd	.	[4.ff	.	4.aa-_	.	#viio7
=	=	=	=	=	=	=	=	=
4.b;	sf	4.dd;]	sf	4.ff;]	sf	4.aa-;]	.	#viio7
=338||	=338||	=338||	=338||	=338||	=338||	=338||	=338||	=338||
*k[b-e-a-]	*	*k[b-e-a-]	*	*k[b-e-a-]	*	*k[b-e-a-]	*	*
*c:	*	*c:	*	*c:	*	*c:	*	*
!	!	!	!	!	!	!LO:TX:a:B:t=Tempo primo	!	!
4r	.	4r	.	4r	.	8ccL	.	i.i
.	.	.	.	.	.	8cc	.	.
8r	.	8r	.	8r	.	8ccJ	.	.
=339	=339	=339	=339	=339	=339	=339	=339	=339
4CC 4C	f f	8cL	.	8e-L	f	4.c	.	.
.	.	8d	.	8f	.	.	.	.
4r	.	8e-	.	8g	.	.	.	.
.	.	8f	.	8a-	.	8ee-L	.	.
4r	.	8e-	.	8g	.	8ee-	.	.
.	.	8dJ	.	8fJ	.	8ee-J	.	.
=340	=340	=340	=340	=340	=340	=340	=340	=340
4CC 4C	.	8cL	.	8e-L	.	4.e-	.	.
.	.	8d	.	8f	.	.	.	.
4r	.	8e-	.	8g	.	.	.	.
.	.	8f	.	8a-	.	8ggL	.	.
4r	.	8e-	.	8g	.	8gg	.	.
.	.	8dJ	.	8fJ	.	8ggJ	.	.
=341	=341	=341	=341	=341	=341	=341	=341	=341
4CC 4C	.	8cL	.	8e-L	.	4cc	.	.
.	.	8d	.	8f	.	.	.	.
4CC 4C	.	8e-	.	8g	.	4ccc	.	.
.	.	8f	.	8a-	.	.	.	.
4CC 4C	.	8f#X	.	8an	.	4cc	.	#viio64/V
.	.	8f#J	.	8aJ	.	.	.	.
=342	=342	=342	=342	=342	=342	=342	=342	=342
4GG	.	8gL	.	8bnL	.	4bn	.	V
.	.	8an	.	8cc	.	.	.	.
4r	.	8bn	.	8dd	.	8r	.	.
.	.	8b	p	8dd	p	8ggL	p	.
4r	.	8b	.	8dd	.	8gg	.	.
.	.	8bJ	.	8ddJ	.	8ggJ	.	.
=343	=343	=343	=343	=343	=343	=343	=343	=343
2.r	.	8ccL	.	8ee-L	.	8aa-L	.	.
.	.	8b-	.	8dd	.	8gg	.	.
.	.	8an	.	8cc	.	8ff#X	.	.
.	.	8bn	.	8dd	.	8gg	.	.
.	.	8g	.	8bn	.	8dd	.	.
.	.	8gJ	.	8bJ	.	8ddJ	.	.
=344	=344	=344	=344	=344	=344	=344	=344	=344
2.r	.	8gL	.	8ccL	.	8ee-L	.	.
.	.	8d	.	8g	.	8bn	.	.
.	.	8e-	.	8g	.	8cc	.	.
.	.	8Bn	.	8d	.	8g	.	.
.	.	8c	.	8e-	.	8a-	.	.
.	.	8cJ	.	8e-J	.	8a-J	.	.
=345	=345	=345	=345	=345	=345	=345	=345	=345
8GGL	.	4Bn	.	4d	.	4g	.	.
8AA-	.	.	.	.	.	.	.	.
8AA-	.	4r	.	4r	.	4r	.	.
8AA-	.	.	.	.	.	.	.	.
8AA-	.	4r	.	4r	.	4r	.	.
8AA-J	.	.	.	.	.	.	.	.
=346	=346	=346	=346	=346	=346	=346	=346	=346
4GG	.	2.r	.	2.r	.	4r	.	.
4r	.	.	.	.	.	8r	.	.
.	.	.	.	.	.	8ccL	p	i
4r	.	.	.	.	.	8cc	.	.
.	.	.	.	.	.	8ccJ	.	.
=347	=347	=347	=347	=347	=347	=347	=347	=347
4CC 4C	p p	8cL	.	8e-L	p	4.c	.	.
.	.	8d	.	8f	.	.	.	.
4r	.	8e-	.	8g	.	.	.	.
.	.	8f	.	8a-	.	8ee-L	.	.
4r	.	8e-	.	8g	.	8ee-	.	.
.	.	8dJ	.	8fJ	.	8ee-J	.	.
=348	=348	=348	=348	=348	=348	=348	=348	=348
4CC 4C	.	8cL	.	8e-L	.	4.e-	.	.
.	.	8d	.	8f	.	.	.	.
4r	.	8e-	.	8g	.	.	.	.
.	.	8f	.	8a-	.	8ggL	.	.
4r	.	8e-	.	8g	.	8gg	.	.
.	.	8dJ	.	8fJ	.	8ggJ	.	.
=349	=349	=349	=349	=349	=349	=349	=349	=349
4CC 4C	.	8cL	.	8e-L	.	4cc	.	.
.	.	8d	.	8f	.	.	.	.
4CC 4C	.	8e-	.	8g	.	4ccc	.	.
.	.	8f	.	8a-	.	.	.	.
4CC 4C	.	8f#X	.	8an	.	4cc	.	#viio64/V
.	.	8f#J	.	8aJ	.	.	.	.
=350	=350	=350	=350	=350	=350	=350	=350	=350
4GG	.	8gL	.	8bnL	.	4bn	.	V
.	.	8an	.	8cc	.	.	.	.
4r	.	8bn	.	8dd	.	8r	.	.
.	.	8b	p	8dd	p	8ggL	p	.
4r	.	8b	.	8dd	.	8gg	.	.
.	.	8bJ	.	8ddJ	.	8ggJ	.	.
=351	=351	=351	=351	=351	=351	=351	=351	=351
2.r	.	8ccL	.	8ee-L	.	8aa-L	.	.
.	.	8b-	.	8dd	.	8gg	.	.
.	.	8an	.	8cc	.	8ff#X	.	.
.	.	8bn	.	8dd	.	8gg	.	.
.	.	8g	.	8bn	.	8dd	.	.
.	.	8gJ	.	8bJ	.	8ddJ	.	.
=352	=352	=352	=352	=352	=352	=352	=352	=352
2.r	.	8gL	.	8ccL	.	8ee-L	.	.
.	.	8d	.	8g	.	8bn	.	.
.	.	8e-	.	8g	.	8cc	.	.
.	.	8Bn	.	8d	.	8g	.	.
.	.	8c	.	8e-	.	8a-	.	.
.	.	8cJ	.	8e-J	.	8a-J	.	.
=353	=353	=353	=353	=353	=353	=353	=353	=353
8GGL	.	4Bn	.	4d	.	4g	.	.
8AA-J	.	.	.	.	.	.	.	.
8AA-L	.	4r	.	4r	.	4r	.	.
8AA-J	.	.	.	.	.	.	.	.
8AA-L	.	4r	.	4r	.	4r	.	.
8AA-J	.	.	.	.	.	.	.	.
=354	=354	=354	=354	=354	=354	=354	=354	=354
4GG	.	4r	.	4r	.	4r	.	.
8r	.	8r	.	8r	.	8r	.	.
!	!	!LO:TX:b:i:t=sempre p	!	!	!	!	!	!
!	!	!LO:TX:a:i:t=sempre p	!	!	!	!LO:TX:b:i:t=sempre p	!	!
8AA-L	.	8A-L	.	8A-L	.	8A-L	.	VI
8AA-	.	8A-	.	8A-	.	8A-	.	.
8AA-J	.	8A-J	.	8A-J	.	8A-J	.	.
=355	=355	=355	=355	=355	=355	=355	=355	=355
4.GG	.	4.G	.	4.G	.	4.G	.	V
8AA-L	.	8A-L	.	8A-L	.	8A-L	.	VI
8AA-	.	8A-	.	8A-	.	8A-	.	.
8AA-J	.	8A-J	.	8A-J	.	8A-J	.	.
=356	=356	=356	=356	=356	=356	=356	=356	=356
4.GG	.	4.G	.	4.G	.	4.G	.	V
8AA-L	.	8A-L	.	8A-L	.	8A-L	.	VI
8AA-	.	8A-	.	8A-	.	8A-	.	.
8AA-J	.	8A-J	.	8A-J	.	8A-J	.	.
=357	=357	=357	=357	=357	=357	=357	=357	=357
4.GG	.	4.G	.	4.G	.	4.G	.	V
8AA-L	.	8A-L	.	8A-L	.	8A-L	.	VI
8AA-	.	8A-	.	8A-	.	8A-	.	.
8AA-J	.	8A-J	.	8A-J	.	8A-J	.	.
=358	=358	=358	=358	=358	=358	=358	=358	=358
4.GG	.	4.G	.	4.G	.	4.G	.	V
8DD-XL	.	8D-XL	.	8d-XL	.	8d-XL	.	iv.VI
8DD-	.	8D-	.	8d-	.	8d-	.	.
8DD-J	.	8D-J	.	8d-J	.	8d-J	.	.
=359	=359	=359	=359	=359	=359	=359	=359	=359
4.CC	.	4.C	.	4.c	.	4.c	.	V
8DD-XL	.	8D-XL	.	8d-XL	.	8d-XL	.	VI
8DD-	.	8D-	.	8d-	.	8d-	.	.
8DD-J	.	8D-J	.	8d-J	.	8d-J	.	.
=360	=360	=360	=360	=360	=360	=360	=360	=360
4.CC	.	4.C	.	4.c	.	4.c	.	V
8DD-XL	.	8D-XL	.	8d-XL	.	8d-XL	.	VI
8DD-	.	8D-	.	8d-	.	8d-	.	.
8DD-J	.	8D-J	.	8d-J	.	8d-J	.	.
=361	=361	=361	=361	=361	=361	=361	=361	=361
4.CC	.	4.C	.	4.c	.	4.c	.	V
8DD-XL	.	8D-XL	.	8d-XL	.	8d-XL	.	VI
8DD-	.	8D-	.	8d-	.	8d-	.	.
8DD-J	.	8D-J	.	8d-J	.	8d-J	.	.
=362	=362	=362	=362	=362	=362	=362	=362	=362
4.CC	.	4.C	.	4.c	.	4.c	.	V
8CL	.	8E-L	.	8A-L	.	8a-L	.	.bII.vii
8C	.	8E-	.	8A-	.	8a-	.	.
8CJ	.	8E-J	.	8A-J	.	8a-J	.	.
=363	=363	=363	=363	=363	=363	=363	=363	=363
4D-X	.	8FL 8A-	.	4A- 4f	.	8fL	.	I
.	.	8F 8A-	.	.	.	8d-X	.	.
4r	.	8F 8A-	.	4r	.	8f	.	.
.	.	8F 8A-	.	.	.	8a-	.	.
4r	.	8F 8A-	.	4r	.	8dd-X	.	.
.	.	8FJ 8A-	.	.	.	8ffJ	.	.
=364	=364	=364	=364	=364	=364	=364	=364	=364
4D-X	.	8FL 8A-	.	8fL	.	4aa-	.	.
.	.	8F 8A-	.	8d-X	.	.	.	.
4r	.	8F 8A-	.	8f	.	4r	.	.
.	.	8F 8A-	.	8a-	.	.	.	.
4r	.	8F 8A-	.	8dd-X	.	4ff	.	.
.	.	8FJ 8A-	.	8ffJ	.	.	.	.
=365	=365	=365	=365	=365	=365	=365	=365	=365
4GG-X	.	8B-L	.	[2.b-	.	[2.bb-	.	IV
.	.	8G-X	.	.	.	.	.	.
4r	.	8B-	.	.	.	.	.	.
.	.	8e-	.	.	.	.	.	.
4r	.	8g-X	.	.	.	.	.	.
.	.	8b-J	.	.	.	.	.	.
=366	=366	=366	=366	=366	=366	=366	=366	=366
8GG-XL	.	4E-	.	4b-]	.	8bb-L]	.	.
8EE-	.	.	.	.	.	8aa-'	.	.
8GG-	.	4r	.	4B-	.	8gg-X'	.	.
8BB-	.	.	.	.	.	8ff'	.	.
8E-	.	8E-L	.	[4g-X	.	8ee-'	.	.
8G-XJ	.	8E-J	.	.	.	8dd-X'J	.	.
=367	=367	=367	=367	=367	=367	=367	=367	=367
4AA-	.	8E-L	.	8g-]	.	8cc'L	.	V7
.	.	8E-	.	8cL	.	8b-'	.	.
4r	.	8E-	.	8c	.	8a-'	.	.
.	.	8E-	.	8c	.	8g-X'	.	.
4r	.	8E-	.	8c	.	8f'	.	.
.	.	8E-J	.	8cJ	.	8e-'J	.	.
=368	=368	=368	=368	=368	=368	=368	=368	=368
4AA-	.	8G-XL	.	8e-L	.	8d-XL	.	.
.	.	8G-	.	8e-	.	8c	.	.
4r	.	8G-	.	8e-	.	8e-	.	.
.	.	8G-	.	8e-	.	8c	.	.
4r	.	8G-	.	8e-	.	8A-	.	.
.	.	8G-J	.	8e-J	.	8cJ	.	.
=369	=369	=369	=369	=369	=369	=369	=369	=369
4.D-X	.	4.A-	.	4.f	.	4d-X	.	I
.	.	.	.	.	.	4r	.	.
8d-XL	.	8fL	.	8a-L	.	.	.	.
8d-	.	8f	.	8a-	.	4r	.	.
8d-J	.	8fJ	.	8a-J	.	.	.	.
=370	=370	=370	=370	=370	=370	=370	=370	=370
4.d-X	.	4.f	.	4.a-	.	4r	.	.
.	.	.	.	.	.	8r	.	.
8D-XL	.	8FL	.	8A-L	.	8a-L	f	.
8D-	.	8F	.	8A-	.	8a-	.	.
8D-J	.	8FJ	.	8A-J	.	8a-J	.	.
=371	=371	=371	=371	=371	=371	=371	=371	=371
4D-X	.	8FL	.	4A-	.	8fL	.	.
.	.	8F 8A-	.	.	.	8d-X	.	.
4r	.	8F 8A-	.	4r	.	8f	.	.
.	.	8F 8A-	.	.	.	8a-	.	.
4r	.	8F 8A-	.	4r	.	8dd-X	.	.
.	.	8FJ 8A-	.	.	.	8ffJ	.	.
=372	=372	=372	=372	=372	=372	=372	=372	=372
4D-X	.	8FL 8A-	.	8fL	.	4aa-	.	I
.	.	8F 8A-	.	8d-X	.	.	.	.
4r	.	8F 8A-	.	8f	.	4r	.	.
.	.	8F 8A-	.	8a-	.	.	.	.
4r	.	8F 8A-	.	8dd-X	.	4ff	.	.
.	.	8FJ 8A-	.	8ffJ	.	.	.	.
=373	=373	=373	=373	=373	=373	=373	=373	=373
!LO:TX:a:i:t=sempre p	!	!	!	!	!	!	!	!
!LO:TX:a:i:t=sempre p	!	!	!	!LO:TX:a:i:t=sempre p	!	!LO:TX:a:i:t=sempre p	!	!
4BB-	.	8FL 8Gn	.	[2.dd-X	.	[2.ddd-X	.	iv.vii%65
.	.	8G	.	.	.	.	.	.
4r	.	8B-	.	.	.	.	.	.
.	.	8d-X	.	.	.	.	.	.
4r	.	8gn	.	.	.	.	.	.
.	.	8b-J	.	.	.	.	.	.
=374	=374	=374	=374	=374	=374	=374	=374	=374
8BB-L	.	4B-	.	4dd-]	.	8ddd-L]	.	ii%65
8GGn	.	.	.	.	.	8ccc'	.	.
8BB-	.	4r	.	4d-X	.	8bb-'	.	.
8D-X	.	.	.	.	.	8aa-'	.	.
8Gn	.	8GL	.	[4b-	.	8ggn'	.	.
8B-J	.	8GJ	.	.	.	8ff'J	.	.
=375	=375	=375	=375	=375	=375	=375	=375	=375
4C	.	8GL	.	8b-L]	.	8een'L	.	V7
.	.	8G	.	8B-	.	8dd-X'	.	.
4r	.	8G	.	8B-	.	8cc'	.	.
.	.	8G	.	8B-	.	8b-'	.	.
4r	.	8G	.	8B-	.	8a-'	.	.
.	.	8GJ	.	8B-J	.	8gn'J	.	.
=376	=376	=376	=376	=376	=376	=376	=376	=376
4C	.	8GL	.	8B-L	.	8fL	.	.
.	.	8G	.	8B-	.	8en	.	.
4r	.	8G	.	8B-	.	8g	.	.
.	.	8G	.	8B-	.	8e	.	.
4r	.	8G	.	8B-	.	8c	.	.
.	.	8GJ	.	8B-J	.	8eJ	.	.
=377	=377	=377	=377	=377	=377	=377	=377	=377
4FF	.	8FL	.	8A-L	.	4.f	.	i
.	.	8G	.	8B-	.	.	.	.
4r	.	8A-	.	8c	.	.	.	.
.	.	8B-	.	8d-X	.	8ffL	.	.
4r	.	8A-	.	8c	.	8ff	.	.
.	.	8GJ	.	8B-J	.	8ffJ	.	.
=378	=378	=378	=378	=378	=378	=378	=378	=378
4FF	.	8FL	.	8A-L	.	4.f	.	.
.	.	8G	.	8B-	.	.	.	.
4r	.	8A-	.	8c	.	.	.	.
.	.	8B-	.	8d-X	.	8aa-L	.	.
4r	.	8A-	.	8c	.	8aa-	.	.
.	.	8GJ	.	8B-J	.	8aa-J	.	.
=379	=379	=379	=379	=379	=379	=379	=379	=379
4FF	.	8FL	.	8A-L	.	4ff	.	.
.	.	8G	.	8B-	.	.	.	.
4FF	.	8F	.	8A-	.	4fff	.	.
.	.	8G	.	8B-	.	.	.	.
4FF	.	8A-	.	8c	.	4ff	.	.
.	.	8FJ	.	8A-J	.	.	.	.
=380	=380	=380	=380	=380	=380	=380	=380	=380
2.r	.	4r	.	4ddn	.	4r	.	i.#viio7
.	.	4r	.	4dn	.	4fff	.	.
.	.	4bn	.	4r	.	4ff	.	.
=381	=381	=381	=381	=381	=381	=381	=381	=381
4r	.	4Bn	.	2.r	.	4r	.	.
4dn	.	4r	.	.	.	4fff	.	.
4Dn	.	4r	.	.	.	4ff	.	.
=382	=382	=382	=382	=382	=382	=382	=382	=382
4Bn	.	4r	.	4r	.	4r	.	V7
4GG	.	4G	.	4f	.	4ddd	.	.
8AAnL	.	4G	.	4f	.	4dd	.	.
8BBnJ	.	.	.	.	.	.	.	.
=383	=383	=383	=383	=383	=383	=383	=383	=383
4CC 4C	.	8CL	.	8e-L	.	4.c	.	i
.	.	8D	.	8f	.	.	.	.
4r	.	8E-	.	8g	.	.	.	.
.	.	8F	.	8a-	.	8ee-L	.	.
4r	.	8E-	.	8g	.	8ee-	.	.
.	.	8DJ	.	8fJ	.	8ee-J	.	.
=384	=384	=384	=384	=384	=384	=384	=384	=384
4CC 4C	.	8CL	.	8e-L	.	4.c	.	.
.	.	8D	.	8f	.	.	.	.
4r	.	8E-	.	8g	.	.	.	.
.	.	8F	.	8a-	.	8ggL	.	.
4r	.	8E-	.	8g	.	8gg	.	.
.	.	8DJ	.	8fJ	.	8ggJ	.	.
=385	=385	=385	=385	=385	=385	=385	=385	=385
4CC 4C	.	8CL	.	8e-L	.	4cc	.	.
.	.	8D	.	8f	.	.	.	.
4CC 4C	.	8C	.	8e-	.	4eee-	.	.
.	.	8D	.	8f	.	.	.	.
4CC 4C	.	8E-	.	8g	.	4cc	.	.
.	.	8CJ	.	8e-J	.	.	.	.
=386	=386	=386	=386	=386	=386	=386	=386	=386
2.r	.	4r	.	4an	.	4r	.	#viio7/V
.	.	4r	.	4An	.	4ccc	.	.
.	.	4f#X	.	4r	.	4cc	.	.
=387	=387	=387	=387	=387	=387	=387	=387	=387
4r	.	4F#X	.	2.r	.	4r	.	#viio7/V
4An	.	4r	.	.	.	4ccc	.	.
4AAn	.	4r	.	.	.	4cc	.	.
=388	=388	=388	=388	=388	=388	=388	=388	=388
4F#X	.	4r	.	4r	.	4r	.	V7/V
4DD	.	4d	.	4c	.	4aan	.	.
8EEnL	.	4d	.	4c	.	4an	.	.
8FF#XJ	.	.	.	.	.	.	.	.
=389	=389	=389	=389	=389	=389	=389	=389	=389
4GG'	.	4d	.	4B- 4g	.	[2.gg	.	v[v
4B-'	.	4r	.	8r	.	.	.	.
.	.	.	.	8gL	.	.	.	.
4GG'	.	4r	.	8g	.	.	.	.
.	.	.	.	8gJ	.	.	.	.
=390	=390	=390	=390	=390	=390	=390	=390	=390
4GG	.	2.r	.	4g	.	2gg]	.	V7
4Bn	.	.	.	8r	.	.	.	.
.	.	.	.	8gL	.	.	.	.
4GG	.	.	.	8g	.	4ff	.	.
.	.	.	.	8gJ	.	.	.	.
=391	=391	=391	=391	=391	=391	=391	=391	=391
4GG	.	2.r	.	4g	.	(8ffL	.	i
.	.	.	.	.	.	8ee-J)	.	.
4c	.	.	.	8r	.	4r	.	.
.	.	.	.	8gL	.	.	.	.
4GG	.	.	.	8g	.	4dd	.	.
.	.	.	.	8gJ	.	.	.	.
=392	=392	=392	=392	=392	=392	=392	=392	=392
4GG	.	2.r	.	4g	.	(8ffL	.	V7
.	.	.	.	.	.	8ee-J)	.	.
4Bn	.	.	.	8r	.	4r	.	.
.	.	.	.	8gL	.	.	.	.
4GG	.	.	.	8g	.	4dd	.	.
.	.	.	.	8gJ	.	.	.	.
=393	=393	=393	=393	=393	=393	=393	=393	=393
4GG	.	2.r	.	4g	.	(8ffL	.	i
.	.	.	.	.	.	8ee-J)	.	.
4c	.	.	.	8r	.	4r	.	.
.	.	.	.	8gL	.	.	.	.
4GG	.	.	.	8g	.	4dd	.	.
.	.	.	.	8gJ	.	.	.	.
=394	=394	=394	=394	=394	=394	=394	=394	=394
4GG	.	2.r	.	4g	.	4ee-	.	V/V
4An	.	.	.	8r	.	4r	.	.
.	.	.	.	8gL	.	.	.	.
4GG	.	.	.	8g	.	4ff#X	.	.
.	.	.	.	8gJ	.	.	.	.
=395	=395	=395	=395	=395	=395	=395	=395	=395
4GG	.	2.r	.	[2.g	.	[2.gg	.	V
4G	.	.	.	.	.	.	.	.
4GG	.	.	.	.	.	.	.	.
=396	=396	=396	=396	=396	=396	=396	=396	=396
4GG	.	4r	.	2g]	.	2gg]	.	V]
(8GGL	.	(4Bn	.	.	.	.	.	.
8FF	.	.	.	.	.	.	.	.
8EE-	.	8cL	.	(8anL	.	(8aanL	.	.
8DDJ)	.	8dJ)	.	8bnJ)	.	8bbnJ)	.	.
=397	=397	=397	=397	=397	=397	=397	=397	=397
!LO:TX:a:i:t=piu p	!	!	!	!	!	!	!	!
!LO:TX:a:i:t=piu p	!	!	!	!LO:TX:a:i:t=piu p	!	!LO:TX:a:i:t=piu p	!	!
4CC	.	4C	.	[2.cc	.	[2.ccc	.	i[i
8r	.	4e-	.	.	.	.	.	.
8cL	.	.	.	.	.	.	.	.
8c	.	4C	.	.	.	.	.	.
8cJ	.	.	.	.	.	.	.	.
=398	=398	=398	=398	=398	=398	=398	=398	=398
4c	.	4C	.	(2cc]	.	(2ccc]	.	V7/iv
8r	.	4en	.	.	.	.	.	.
8cL	.	.	.	.	.	.	.	.
8c	.	4C	.	4b-X)	.	4bb-X)	.	.
8cJ	.	.	.	.	.	.	.	.
=399	=399	=399	=399	=399	=399	=399	=399	=399
4c	.	4C	.	(8b-L	.	(8bb-L	.	iv
.	.	.	.	8a-XJ)	.	8aa-XJ)	.	.
8r	.	4f	.	4r	.	4r	.	.
8cL	.	.	.	.	.	.	.	.
8c	.	4C	.	4g	.	4gg	.	.
8cJ	.	.	.	.	.	.	.	.
=400	=400	=400	=400	=400	=400	=400	=400	=400
4c	.	4C	.	(8b-L	.	(8bb-L	.	V7/iv
.	.	.	.	8a-J)	.	8aa-J)	.	.
8r	.	4en	.	4r	.	4r	.	.
8cL	.	.	.	.	.	.	.	.
8c	.	4C	.	4g	.	4gg	.	.
8cJ	.	.	.	.	.	.	.	.
=401	=401	=401	=401	=401	=401	=401	=401	=401
4c	.	4C	.	(8b-L	.	(8bb-L	.	iv
.	.	.	.	8a-J)	.	8aa-J)	.	.
8r	.	4f	.	4r	.	4r	.	.
8cL	.	.	.	.	.	.	.	.
8c	.	4C	.	4g	.	4gg	.	.
8cJ	.	.	.	.	.	.	.	.
=402	=402	=402	=402	=402	=402	=402	=402	=402
4c	.	4C	.	4a-	.	4aa-	.	iv
8r	.	4d	.	4r	.	4r	.	.
8cL	.	.	.	.	.	.	.	.
8c	.	4C	.	4bn	.	4bbn	.	V
8cJ	.	.	.	.	.	.	.	.
=403	=403	=403	=403	=403	=403	=403	=403	=403
!	!	!LO:TX:a:i:t=sempre piu p	!	!	!	!	!	!
!LO:TX:a:i:t=sempre piu p	!	!LO:TX:a:i:t=sempre piu p	!	!	!	!LO:TX:a:i:t=sempre piu p	!	!
8cL	.	8e-XL	.	4.cc	.	4.ccc	.	i6
8cJ	.	8e-J	.	.	.	.	.	.
2e-	.	2g	.	.	.	.	.	.
.	.	.	.	8ccL	.	8cccL	.	.
.	.	.	.	8cc	.	8ccc	.	.
.	.	.	.	8ccJ	.	8bb-XJ	.	.
=404	=404	=404	=404	=404	=404	=404	=404	=404
8fL	.	8a-L	.	4cc	.	4.aa-	.	V65/III
8fJ	.	8a-J	.	.	.	.	.	.
2d	.	2f	.	8b-XL	.	.	.	.
.	.	.	.	8b-	.	8bb-L	.	.
.	.	.	.	8b-	.	8bb-	.	.
.	.	.	.	8b-J	.	8aa-J	.	.
=405	=405	=405	=405	=405	=405	=405	=405	=405
8e-L	.	8gL	.	4b-	.	4.gg	.	IV6
8e-J	.	8gJ	.	.	.	.	.	.
2c	.	2e-	.	8a-L	.	.	.	.
.	.	.	.	8a-	.	8aa-L	.	.
.	.	.	.	8a-	.	8aa-	.	.
.	.	.	.	8a-J	.	8ggJ	.	.
=406	=406	=406	=406	=406	=406	=406	=406	=406
8dL	.	8fL	.	4a-	.	4.ff	.	V65
8dJ	.	8fJ	.	.	.	.	.	.
2Bn	.	2d	.	8gL	.	.	.	.
.	.	.	.	8g	.	8ggL	.	.
.	.	.	.	8g	.	8gg	.	.
.	.	.	.	8gJ	.	8ffJ	.	.
=407	=407	=407	=407	=407	=407	=407	=407	=407
8cL	.	8e-L	.	4g	.	4.ee-	.	i6
8CJ	.	8E-J	.	.	.	.	.	.
2E-	.	2G	.	8cL	.	.	.	.
.	.	.	.	8c	.	8ccL	.	.
.	.	.	.	8c	.	8cc	.	.
.	.	.	.	8cJ	.	8b-J	.	.
=408	=408	=408	=408	=408	=408	=408	=408	=408
8FL	.	8A-L	.	4c	.	4.a-	.	V65/III
8FJ	.	8A-J	.	.	.	.	.	.
2D	.	2F	.	8B-XL	.	.	.	.
.	.	.	.	8B-	.	8b-L	.	.
.	.	.	.	8B-	.	8b-	.	.
.	.	.	.	8B-J	.	8a-J	.	.
=409	=409	=409	=409	=409	=409	=409	=409	=409
8E-L	.	8GL	.	4B-	.	4.g	.	VI6
8E-J	.	8GJ	.	.	.	.	.	.
2C	.	2E-	.	8A-L	.	.	.	.
.	.	.	.	8A-	.	8a-L	.	.
.	.	.	.	8A-	.	8a-	.	.
.	.	.	.	8A-J	.	8gJ	.	.
=410	=410	=410	=410	=410	=410	=410	=410	=410
8DL	.	8FL	.	4A-	.	4.f	.	V65
8DJ	.	8FJ	.	.	.	.	.	.
2BBn	.	2D	.	8GL	.	.	.	.
.	.	.	.	8G	.	8gL	.	.
.	.	.	.	8G	.	8g	.	.
.	.	.	.	8GJ	.	8fJ	.	.
=411	=411	=411	=411	=411	=411	=411	=411	=411
8CL	.	8E-L	.	4G	.	4.e-	.	iv6
8CJ	.	8E-J	.	.	.	.	.	.
2AA-	.	2C	.	8cL	.	.	.	.
.	.	.	.	8c	.	8fL	.	.
.	.	.	.	8c	.	8e-	.	.
.	.	.	.	8cJ	.	8fJ	.	.
=412	=412	=412	=412	=412	=412	=412	=412	=412
8GGL	.	8DL	.	4c	.	4.g	.	V7
8GGJ	.	8DJ	.	.	.	.	.	.
2GG	.	2D	.	8BnL	.	.	.	.
.	.	.	.	8B	.	8gL	.	.
.	.	.	.	8B	.	8g	.	.
.	.	.	.	8BJ	.	8fJ	.	.
=413	=413	=413	=413	=413	=413	=413	=413	=413
8CL	.	8E-L	.	4G	.	4.e-	.	iv6
8CJ	.	8E-J	.	.	.	.	.	.
2AA-	.	2C	.	8cL	.	.	.	.
.	.	.	.	8c	.	8fL	.	.
.	.	.	.	8c	.	8e-	.	.
.	.	.	.	8cJ	.	8fJ	.	.
=414	=414	=414	=414	=414	=414	=414	=414	=414
8GGL	.	8DL	.	4c	.	4.g	.	V
8GGJ	.	8DJ	.	.	.	.	.	.
2GG	.	2D	.	8BnL	.	.	.	.
.	.	.	.	8B	.	8gL	.	.
.	.	.	.	8B	.	8g	.	.
.	.	.	.	8BJ	.	8gJ	.	.
=415	=415	=415	=415	=415	=415	=415	=415	=415
8GGL	ppp	4D	ppp	4Bn	ppp	4g	ppp	.
8GG	.	.	.	.	.	.	.	.
8AA-	.	4r	.	4r	.	4r	.	.
8AA-	.	.	.	.	.	.	.	.
8GG	.	4r	.	4r	.	4r	.	.
8GGJ	.	.	.	.	.	.	.	.
=416	=416	=416	=416	=416	=416	=416	=416	=416
8FFL	.	2.r	.	4c	.	4a-	.	iv
8FF	.	.	.	.	.	.	.	.
8GG	.	.	.	4r	.	4r	.	.
8GG	.	.	.	.	.	.	.	.
8FF	.	.	.	4r	.	4r	.	.
8FFJ	.	.	.	.	.	.	.	.
=417	=417	=417	=417	=417	=417	=417	=417	=417
8EE-L	.	4G	.	4c	.	4an	.	ii%43/v
8EE-	.	.	.	.	.	.	.	.
8FF	.	4r	.	4r	.	4r	.	.
8FF	.	.	.	.	.	.	.	.
8EE-	.	4r	.	4r	.	4r	.	.
8EE-J	.	.	.	.	.	.	.	.
=418	=418	=418	=418	=418	=418	=418	=418	=418
8DDL	.	4G	.	4d	.	4bn	.	V43
8DD	.	.	.	.	.	.	.	.
8EE-	.	4r	.	4r	.	4r	.	.
8EE-	.	.	.	.	.	.	.	.
8DD	.	4r	.	4r	.	4r	.	.
8DDJ	.	.	.	.	.	.	.	.
=419	=419	=419	=419	=419	=419	=419	=419	=419
8CCL	.	4G	.	4e-	.	4cc	.	i
8GG	.	.	.	.	.	.	.	.
8GG	.	4r	.	4r	.	4r	.	.
8GG	.	.	.	.	.	.	.	.
8GG	.	8GL	.	8dL	.	8bnL	.	V
8GGJ	.	8GJ	.	8dJ	.	8bJ	.	.
=420	=420	=420	=420	=420	=420	=420	=420	=420
8CCL	.	4G	.	4e-	.	4cc	.	i
8GG	.	.	.	.	.	.	.	.
8GG	.	4r	.	4r	.	4r	.	.
8GG	.	.	.	.	.	.	.	.
8GG	.	8GL	.	8dL	.	8bnL	.	V
8GGJ	.	8GJ	.	8dJ	.	8bJ	.	.
=421	=421	=421	=421	=421	=421	=421	=421	=421
8CCL	.	4G	.	4e-	.	4cc	.	i
8GG	.	.	.	.	.	.	.	.
8GG	.	4r	.	4r	.	4r	.	.
8GG	.	.	.	.	.	.	.	.
8GG	.	8GL	.	8dL	.	8bnL	.	V
8GGJ	.	8GJ	.	8dJ	.	8bJ	.	.
=422	=422	=422	=422	=422	=422	=422	=422	=422
8CCL	.	4G	.	4e-	.	4cc	.	i
8GG	.	.	.	.	.	.	.	.
8GG	.	4r	.	4r	.	4r	.	.
8GG	.	.	.	.	.	.	.	.
8GG	.	8GL	.	8dL	.	8bnL	.	V
8GGJ	.	8GJ	.	8dJ	.	8bJ	.	.
=423	=423	=423	=423	=423	=423	=423	=423	=423
!LO:TX:a:i:t=poco cresc.	!	!	!	!	!	!	!	!
!LO:TX:a:i:t=poco cresc.	!	!	!	!LO:TX:a:i:t=poco cresc.	!	!LO:TX:a:i:t=poco cresc.	!	!
8CCL	.	(4C	.	[2.e-	.	[2.cc	.	VI6(7)
8GG	.	.	.	.	.	.	.	.
8GG	.	[2A-)	.	.	.	.	.	.
8GG	.	.	.	.	.	.	.	.
8GG	.	.	.	.	.	.	.	.
8GGJ	.	.	.	.	.	.	.	.
=424	=424	=424	=424	=424	=424	=424	=424	=424
8AA-L	.	2.A-_	.	2.e-_	.	2.cc_	.	VI
8AA-	.	.	.	.	.	.	.	.
8AA-	.	.	.	.	.	.	.	.
8AA-	.	.	.	.	.	.	.	.
8AA-	.	.	.	.	.	.	.	.
8AA-J	.	.	.	.	.	.	.	.
=425	=425	=425	=425	=425	=425	=425	=425	=425
!LO:TX:a:i:t=dim.	!	!LO:TX:a:i:t=dim.	!	!LO:TX:a:i:t=dim.	!	!LO:TX:a:i:t=dim.	!	!
8AA-L	.	2.A-_	.	2.e-_	.	2.cc_	.	.
8AA-	.	.	.	.	.	.	.	.
8AA-	.	.	.	.	.	.	.	.
8AA-	.	.	.	.	.	.	.	.
8AA-	.	.	.	.	.	.	.	.
8AA-J	.	.	.	.	.	.	.	.
=426	=426	=426	=426	=426	=426	=426	=426	=426
8AA-L	.	2.A-_	.	2.e-_	.	2.cc_	.	.
8AA-	.	.	.	.	.	.	.	.
8AA-	.	.	.	.	.	.	.	.
8AA-	.	.	.	.	.	.	.	.
8AA-	.	.	.	.	.	.	.	.
8AA-J	.	.	.	.	.	.	.	.
=427	=427	=427	=427	=427	=427	=427	=427	=427
!LO:TX:a:i:t=sempre pp	!	!	!	!	!	!	!	!
8AA-L	.	4A-]	.	4e-]	.	4cc]	.	.
8AA-	.	.	.	.	.	.	.	.
8BB-	.	4r	.	4r	.	4r	.	.
8BB-	.	.	.	.	.	.	.	.
8AA-	.	4r	.	4r	.	4r	.	.
8AA-J	.	.	.	.	.	.	.	.
=428	=428	=428	=428	=428	=428	=428	=428	=428
!	!	!LO:TX:a:i:t=sempre pp	!	!	!	!LO:TX:a:i:t=sempre pp	!	!
8GG-XL	.	2.r	.	4c	.	4a-	.	.bII.V2
8GG-	.	.	.	.	.	.	.	.
8AA-	.	.	.	4r	.	4r	.	.
8AA-	.	.	.	.	.	.	.	.
8GG-	.	.	.	4r	.	4r	.	.
8GG-J	.	.	.	.	.	.	.	.
=429	=429	=429	=429	=429	=429	=429	=429	=429
!	!	!LO:TX:a:i:t=sempre pp	!	!	!	!	!	!
8FFL	.	4A-	.	4d-X	.	4b-X	.	I6
8FF	.	.	.	.	.	.	.	.
8GG-X	.	4r	.	4r	.	4r	.	.
8GG-	.	.	.	.	.	.	.	.
8FF	.	4r	.	4r	.	4r	.	.
8FFJ	.	.	.	.	.	.	.	.
=430	=430	=430	=430	=430	=430	=430	=430	=430
8EE-L	.	4A-	.	4e-	.	4cc	.	V64
8EE-	.	.	.	.	.	.	.	.
8FF	.	4r	.	4r	.	4r	.	.
8FF	.	.	.	.	.	.	.	.
8EE-	.	4r	.	4r	.	4r	.	.
8EE-J	.	.	.	.	.	.	.	.
=431	=431	=431	=431	=431	=431	=431	=431	=431
8DD-XL	.	4A-	.	4e-	.	4dd-X	.	I(2)
8AA-	.	.	.	.	.	.	.	.
8AA-	.	8r	.	8r	.	8r	.	.
8AA-	.	8A-L	.	8e-L	.	8ccL	.	V
8AA-	.	8A-	.	8e-	.	8cc	.	.
8AA-J	.	8A-J	.	8e-J	.	8ccJ	.	.
=432	=432	=432	=432	=432	=432	=432	=432	=432
8DD-XL	.	4A-	.	4f	.	4dd-X	.	I
8AA-	.	.	.	.	.	.	.	.
8AA-	.	8r	.	8r	.	8r	.	.
8AA-	.	8A-L	.	8e-L	.	8ccL	.	V
8AA-	.	8A-	.	8e-	.	8cc	.	.
8AA-J	.	8A-J	.	8e-J	.	8ccJ	.	.
=433	=433	=433	=433	=433	=433	=433	=433	=433
8DD-XL	.	4A-	.	4f	.	4dd-X	.	I
8AA-	.	.	.	.	.	.	.	.
8AA-	.	8r	.	8r	.	8r	.	.
8AA-	.	8A-L	.	8e-L	.	8ccL	.	V
8AA-	.	8A-	.	8e-	.	8cc	.	.
8AA-J	.	8A-J	.	8e-J	.	8ccJ	.	.
=434	=434	=434	=434	=434	=434	=434	=434	=434
8DD-XL	.	4A-	.	4f	.	4dd-X	.	I
8AA-	.	.	.	.	.	.	.	.
8AA-	.	8r	.	8r	.	8r	.	.
8AA-	.	8A-L	.	8e-L	.	8ccL	.	V
8AA-	.	8A-	.	8e-	.	8cc	.	.
8AA-J	.	8A-J	.	8e-J	.	8ccJ	.	.
=435	=435	=435	=435	=435	=435	=435	=435	=435
!LO:TX:a:i:t=poco cresc.	!	!	!	!	!	!	!	!
!LO:TX:a:i:t=poco cresc.	!	!	!	!LO:TX:a:i:t=poco cresc.	!	!LO:TX:a:i:t=poco cresc.	!	!
8DD-XL	.	(4D-X	.	[2.f	.	[2.dd-X	.	vi
8BB-	.	.	.	.	.	.	.	.
8BB-	.	[2B-)	.	.	.	.	.	.
8BB-	.	.	.	.	.	.	.	.
8BB-	.	.	.	.	.	.	.	.
8BB-J	.	.	.	.	.	.	.	.
=436	=436	=436	=436	=436	=436	=436	=436	=436
8BB-L	.	2.B-_	.	2.f_	.	2.dd-]	.	.
8BB-	.	.	.	.	.	.	.	.
8BB-	.	.	.	.	.	.	.	.
8BB-	.	.	.	.	.	.	.	.
8BB-	.	.	.	.	.	.	.	.
8BB-J	.	.	.	.	.	.	.	.
=437	=437	=437	=437	=437	=437	=437	=437	=437
!LO:TX:a:i:t=dim.	!	!LO:TX:a:i:t=dim.	!	!LO:TX:a:i:t=dim.	!	!LO:TX:a:i:t=dim.	!	!
8BB-L	.	2.B-_	.	2.f_	.	[2.ddn	.	VI-V/iii
8BB-	.	.	.	.	.	.	.	.
8BB-	.	.	.	.	.	.	.	.
8BB-	.	.	.	.	.	.	.	.
8BB-	.	.	.	.	.	.	.	.
8BB-J	.	.	.	.	.	.	.	.
=438	=438	=438	=438	=438	=438	=438	=438	=438
8BB-L	.	2.B-]	.	2.f]	.	2.dd]	.	.
8BB-	.	.	.	.	.	.	.	.
8BB-	.	.	.	.	.	.	.	.
8BB-	.	.	.	.	.	.	.	.
8BB-	.	.	.	.	.	.	.	.
8BB-J	.	.	.	.	.	.	.	.
=439	=439	=439	=439	=439	=439	=439	=439	=439
8BB-L	pp	4B-	pp	2.f	pp	2.dd	pp	iii.V
8BB-	.	.	.	.	.	.	.	.
8C-X	.	4r	.	.	.	.	.	.
8C-	.	.	.	.	.	.	.	.
8BB-	.	4r	.	.	.	.	.	.
8BB-J	.	.	.	.	.	.	.	.
=440	=440	=440	=440	=440	=440	=440	=440	=440
8AA-L	.	2.r	.	[2.g-X	.	[2.ee-	.	i64
8AA-	.	.	.	.	.	.	.	.
8BB-	.	.	.	.	.	.	.	.
8BB-	.	.	.	.	.	.	.	.
8AA-	.	.	.	.	.	.	.	.
8AA-J	.	.	.	.	.	.	.	.
=441	=441	=441	=441	=441	=441	=441	=441	=441
!LO:TX:a:i:t=poco cresc.	!	!LO:TX:a:i:t=poco cresc.	!	!LO:TX:b:i:t=poco cresc.	!	!LO:TX:a:i:t=poco cresc.	!	!
8GG-XL	.	(2.c-X	.	2.g-_	.	2.ee-_	.	VI64
8GG-	.	.	.	.	.	.	.	.
8AA-	.	.	.	.	.	.	.	.
8AA-	.	.	.	.	.	.	.	.
8GG-	.	.	.	.	.	.	.	.
8GG-J	.	.	.	.	.	.	.	.
=442	=442	=442	=442	=442	=442	=442	=442	=442
8AA-L	.	2.cc-X)	.	2.g-]	.	2.ee-]	.	iv7
8AA-	.	.	.	.	.	.	.	.
8BB-	.	.	.	.	.	.	.	.
8BB-	.	.	.	.	.	.	.	.
8AA-	.	.	.	.	.	.	.	.
8AA-J	.	.	.	.	.	.	.	.
=443	=443	=443	=443	=443	=443	=443	=443	=443
8BB-L	pp	4b-	pp	2.f	pp	2.dd	pp	V
8BB-	.	.	.	.	.	.	.	.
8C-X	.	4r	.	.	.	.	.	.
8C-	.	.	.	.	.	.	.	.
8BB-	.	4r	.	.	.	.	.	.
8BB-J	.	.	.	.	.	.	.	.
=444	=444	=444	=444	=444	=444	=444	=444	=444
8AA-L	.	2.r	.	[2.g-X	.	[2.ee-	.	i64
8AA-	.	.	.	.	.	.	.	.
8BB-	.	.	.	.	.	.	.	.
8BB-	.	.	.	.	.	.	.	.
8AA-	.	.	.	.	.	.	.	.
8AA-J	.	.	.	.	.	.	.	.
=445	=445	=445	=445	=445	=445	=445	=445	=445
!LO:TX:a:i:t=poco cresc.	!	!LO:TX:a:i:t=poco cresc.	!	!LO:TX:b:i:t=poco cresc.	!	!LO:TX:a:i:t=poco cresc.	!	!
8GG-XL	.	(2.c-X	.	2.g-_	.	2.ee-_	.	VI64
8GG-	.	.	.	.	.	.	.	.
8AA-	.	.	.	.	.	.	.	.
8AA-	.	.	.	.	.	.	.	.
8GG-	.	.	.	.	.	.	.	.
8GG-J	.	.	.	.	.	.	.	.
=446	=446	=446	=446	=446	=446	=446	=446	=446
8AA-L	.	2.cc-X)	.	2.g-]	.	2.ee-]	.	iv7
8AA-	.	.	.	.	.	.	.	.
8BB-	.	.	.	.	.	.	.	.
8BB-	.	.	.	.	.	.	.	.
8AA-	.	.	.	.	.	.	.	.
8AA-J	.	.	.	.	.	.	.	.
=447	=447	=447	=447	=447	=447	=447	=447	=447
8BB-L	pp	4b-	pp	4f	pp	4dd	pp	V
8BB-	.	.	.	.	.	.	.	.
8C-X	.	4r	.	4r	.	4r	.	.
8C-	.	.	.	.	.	.	.	.
8BB-	.	4r	.	4r	.	4r	.	.
8BB-J	.	.	.	.	.	.	.	.
=448	=448	=448	=448	=448	=448	=448	=448	=448
8CL	.	2.r	.	2.r	.	2.r	.	.
8C	.	.	.	.	.	.	.	.
8D	.	.	.	.	.	.	.	.
8D	.	.	.	.	.	.	.	.
8C	.	.	.	.	.	.	.	.
8CJ	.	.	.	.	.	.	.	.
=449	=449	=449	=449	=449	=449	=449	=449	=449
!	!	!	!	!LO:TX:a:i:t=sempre pp	!	!	!	!
4D	.	2.r	.	2.r	.	8b-L	.	.
.	.	.	.	.	.	8b-	.	.
4r	.	.	.	.	.	8cc	.	.
.	.	.	.	.	.	8cc	.	.
4r	.	.	.	.	.	8b-	.	.
.	.	.	.	.	.	8b-J	.	.
=450	=450	=450	=450	=450	=450	=450	=450	=450
2.r	.	2.r	.	2.r	.	8ccL	.	.
.	.	.	.	.	.	8cc	.	.
.	.	.	.	.	.	8dd	.	.
.	.	.	.	.	.	8dd	.	.
.	.	.	.	.	.	8cc	.	.
.	.	.	.	.	.	8ccJ	.	.
=451	=451	=451	=451	=451	=451	=451	=451	=451
8DL	.	2.r	.	2.r	.	4dd	.	.
8D	.	.	.	.	.	.	.	.
8E-	.	.	.	.	.	4r	.	.
8E-	.	.	.	.	.	.	.	.
8D	.	.	.	.	.	4r	.	.
8DJ	.	.	.	.	.	.	.	.
=452	=452	=452	=452	=452	=452	=452	=452	=452
8E-L	.	2.r	.	2.r	.	2.r	.	.
8E-	.	.	.	.	.	.	.	.
8F	.	.	.	.	.	.	.	.
8F	.	.	.	.	.	.	.	.
8E-	.	.	.	.	.	.	.	.
8E-J	.	.	.	.	.	.	.	.
=453	=453	=453	=453	=453	=453	=453	=453	=453
4F	.	2.r	.	2.r	.	8ddL	.	.
.	.	.	.	.	.	8dd	.	.
4r	.	.	.	.	.	8ee-	.	.
.	.	.	.	.	.	8ee-	.	.
4r	.	.	.	.	.	8dd	.	.
.	.	.	.	.	.	8ddJ	.	.
=454	=454	=454	=454	=454	=454	=454	=454	=454
2.r	.	2.r	.	2.r	.	8ee-L	.	.
.	.	.	.	.	.	8ee-	.	.
.	.	.	.	.	.	8ff	.	.
.	.	.	.	.	.	8ff	.	.
.	.	.	.	.	.	8ee-	.	.
.	.	.	.	.	.	8ee-J	.	.
=455	=455	=455	=455	=455	=455	=455	=455	=455
!	!	!	!	!LO:TX:a:i:t=sempre pp	!	!	!	!
2.r	.	2.r	.	8ddL	.	8ffL	.	V65
.	.	.	.	8dd	.	8ff	.	.
.	.	.	.	8ee-	.	8gg	.	.
.	.	.	.	8ee-	.	8gg	.	.
.	.	.	.	8dd	.	8ff	.	.
.	.	.	.	8ddJ	.	8ffJ	.	.
=456	=456	=456	=456	=456	=456	=456	=456	=456
2.r	.	2.r	.	8ee-L	.	8ggL	.	V7
.	.	.	.	8ee-	.	8gg	.	.
.	.	.	.	8ff	.	8aa-	.	.
.	.	.	.	8ff	.	8aa-	.	.
.	.	.	.	8ee-	.	8gg	.	.
.	.	.	.	8ee-J	.	8ggJ	.	.
=457	=457	=457	=457	=457	=457	=457	=457	=457
2.r	.	2.r	.	8ffL	.	8aa-L	.	.
.	.	.	.	8ff	.	8aa-	.	.
.	.	.	.	8gg	.	8bb-	.	.
.	.	.	.	8gg	.	8bb-	.	.
.	.	.	.	8ff	.	8aa-	.	.
.	.	.	.	8ffJ	.	8aa-J	.	.
=458	=458	=458	=458	=458	=458	=458	=458	=458
2.r	.	2.r	.	8ffL	.	8aa-L	.	.
.	.	.	.	8ff	.	8aa-	.	.
.	.	.	.	8gg	.	8bb-	.	.
.	.	.	.	8gg	.	8bb-	.	.
.	.	.	.	8ff	.	8aa-	.	.
.	.	.	.	8ffJ	.	8aa-J	.	.
=459	=459	=459	=459	=459	=459	=459	=459	=459
!LO:TX:a:i:t=sempre pp	!	!LO:TX:a:i:t=sempre pp	!	!	!	!	!	!
8fL	.	8a-L	.	4ff	.	4aa-	.	V43
8f	.	8a-	.	.	.	.	.	.
8g	.	8b-	.	4r	.	4r	.	.
8g	.	8b-	.	.	.	.	.	.
8f	.	8a-	.	4r	.	4r	.	.
8fJ	.	8a-J	.	.	.	.	.	.
=460	=460	=460	=460	=460	=460	=460	=460	=460
8fL	.	8a-L	.	2.r	.	2.r	.	.
8f	.	8a-	.	.	.	.	.	.
8g	.	8b-	.	.	.	.	.	.
8g	.	8b-	.	.	.	.	.	.
8f	.	8a-	.	.	.	.	.	.
8fJ	.	8a-J	.	.	.	.	.	.
=461	=461	=461	=461	=461	=461	=461	=461	=461
4f	.	4a-	.	8fL	.	8a-L	.	.
.	.	.	.	8f	.	8a-	.	.
4r	.	4r	.	8g	.	8b-	.	.
.	.	.	.	8g	.	8b-	.	.
4r	.	4r	.	8f	.	8a-	.	.
.	.	.	.	8fJ	.	8a-J	.	.
=462	=462	=462	=462	=462	=462	=462	=462	=462
2.r	.	2.r	.	8fL	.	8a-L	.	.
.	.	.	.	8f	.	8a-	.	.
.	.	.	.	8g	.	8b-	.	.
.	.	.	.	8g	.	8b-	.	.
.	.	.	.	8f	.	8a-	.	.
.	.	.	.	8fJ	.	8a-J	.	.
=463	=463	=463	=463	=463	=463	=463	=463	=463
8FL	.	8A-L	.	4f	.	4a-	.	.
8F	.	8A-	.	.	.	.	.	.
8G	.	8B-	.	4r	.	4r	.	.
8G	.	8B-	.	.	.	.	.	.
8F	.	8A-	.	4r	.	4r	.	.
8FJ	.	8A-J	.	.	.	.	.	.
=464	=464	=464	=464	=464	=464	=464	=464	=464
8FL	.	8A-L	.	2.r	.	2.r	.	.
8F	.	8A-	.	.	.	.	.	.
8G	.	8B-	.	.	.	.	.	.
8G	.	8B-	.	.	.	.	.	.
8F	.	8A-	.	.	.	.	.	.
8FJ	.	8A-J	.	.	.	.	.	.
=465	=465	=465	=465	=465	=465	=465	=465	=465
8DL	.	8FL	.	2.r	.	8A-L	.	V65
8D	.	8F	.	.	.	8A-	.	.
8C#X	.	8G	.	.	.	8B-	.	.
8C#	.	8G	.	.	.	8B-	.	.
8D	.	8F	.	.	.	8A-	.	.
8DJ	.	8FJ	.	.	.	8A-J	.	.
=466	=466	=466	=466	=466	=466	=466	=466	=466
!LO:TX:a:i:t=attacca il Tema dei Variazioni	!	!	!	!	!	!	!	!
8DDL	.	8FL	.	8B-L	.	8A-L	.	V65
8DD	.	8F	.	8B-	.	8A-	.	.
8CCn	.	8G	.	8B-	.	8B-	.	.
8CC	.	8G	.	8B-	.	8B-	.	.
8DD	.	8F	.	8B-	.	8A-	.	.
8DDJ	.	8FJ	.	8B-J	.	8A-J	.	.
=467	=467	=467	=467	=467	=467	=467	=467	=467
2.DD;	.	2.F;	.	2.B-;	.	2.A-;	.	V65
==	==	==	==	==	==	==	==	==
*-	*-	*-	*-	*-	*-	*-	*-	*-
!!!system-decoration: [(s1,s2,s3,s4)]
